; generated by PrusaSlicer 2.6.0-alpha5+win64 on 2023-06-21 at 19:02:36 UTC

; 

; external perimeters extrusion width = 0.45mm
; perimeters extrusion width = 0.45mm
; infill extrusion width = 0.45mm
; solid infill extrusion width = 0.45mm
; top infill extrusion width = 0.40mm
; first layer extrusion width = 0.70mm

; external perimeters extrusion width = 0.45mm
; perimeters extrusion width = 0.45mm
; infill extrusion width = 0.45mm
; solid infill extrusion width = 0.45mm
; top infill extrusion width = 0.40mm
; first layer extrusion width = 0.70mm

; external perimeters extrusion width = 0.45mm
; perimeters extrusion width = 0.45mm
; infill extrusion width = 0.45mm
; solid infill extrusion width = 0.45mm
; top infill extrusion width = 0.40mm
; first layer extrusion width = 0.70mm

M107
M104 S200 ; set temperature
;TYPE:Custom
G28 ; home all axes
G1 Z5 F5000 ; lift nozzle
M109 S200 ; set temperature and wait for it to be reached
G21 ; set units to millimeters
G90 ; use absolute coordinates
M82 ; use absolute distances for extrusion
G92 E0
; Filament gcode
M107
;LAYER_CHANGE
;Z:0.35
;HEIGHT:0.35
G1 Z.35 F7800
G1 E-2 F2400
G92 E0
G1 X48.788 Y46.965 F7800
G1 E2 F2400
;TYPE:Skirt/Brim
;WIDTH:0.7
G1 F1800
G1 X57.174 Y38.253 E3.09955
G1 X60.515 Y35.196 E3.51133
G1 X64.089 Y32.417 E3.92299
G1 X67.874 Y29.931 E4.33476
G1 X71.845 Y27.756 E4.74646
G1 X76.022 Y25.887 E5.16256
G1 X80.244 Y24.391 E5.56985
G1 X84.616 Y23.223 E5.98134
G1 X89.12 Y22.4 E6.39767
G1 X93.577 Y21.949 E6.80501
G1 X98.103 Y21.854 E7.21665
G1 X101.628 Y22.03 E7.53758
G1 X105.991 Y22.556 E7.93718
G1 X110.43 Y23.45 E8.34892
G1 X113.831 Y24.391 E8.66979
G1 X117.975 Y25.857 E9.06949
G1 X122.095 Y27.69 E9.47952
G1 X125.225 Y29.358 E9.80202
G1 X129.058 Y31.767 E10.21367
G1 X130.9 Y33.085 E10.41962
G1 X133.459 Y35.111 E10.71641
G1 X136.9 Y38.253 E11.14011
G1 X166.812 Y69.325 E15.0619
G1 X168.15 Y71.364 E15.28366
G1 X183.011 Y106.924 E18.78812
G1 X183.524 Y109.479 E19.02508
G1 X183.524 Y135.479 E21.38925
G1 X183.127 Y137.738 E21.59781
G1 X181.983 Y139.726 E21.80637
G1 X180.59 Y140.98 E21.9768
G1 X103.09 Y192.98 E30.46314
G1 X100.993 Y193.909 E30.67169
G1 X99.399 Y194.104 E30.81771
G1 X96.399 Y194.104 E31.0905
G1 X94.14 Y193.707 E31.29906
G1 X92.865 Y193.083 E31.42814
G1 X37.365 Y158.083 E37.39443
G1 X35.666 Y156.542 E37.603
G1 X34.357 Y153.523 E37.90221
G1 X26.291 Y103.001 E42.55433
G1 X26.211 Y102.167 E42.63051
G1 X25.416 Y77.128 E44.90844
G1 X25.413 Y73.918 E45.20032
G1 X25.81 Y71.659 E45.40888
G1 X27.263 Y69.325 E45.65887
G1 X48.746 Y47.008 E48.47559
G1 E46.47559 F2400
G92 E0
G1 X43.567 Y111.001 F7800
G1 E2 F2400
;TYPE:Perimeter
;WIDTH:0.53688
G1 F1800
G1 X43.273 Y111.082 E2.02049
;WIDTH:0.538693
G1 X42.814 Y111.394 E2.05793
G1 X42.501 Y111.853 E2.09541
G1 X42.399 Y112.441 E2.13567
G1 X42.418 Y110.998 E2.23302
G1 X43.587 Y110.99 E2.31188
G1 E.31188 F2400
G92 E0
G1 X45.936 Y110.979 F7800
G1 E2 F2400
;WIDTH:0.550333
G1 F1800
G1 X46.164 Y111.004 E2.01586
;WIDTH:0.600222
G1 X46.392 Y111.029 E2.03339
;WIDTH:0.650111
G1 X46.62 Y111.054 E2.05258
;WIDTH:0.7
G1 X46.848 Y111.079 E2.07344
G1 X49.711 Y111.077 E2.33377
G1 X50.187 Y110.921 E2.37932
G1 X49.817 Y112.532 E2.52962
G1 X49.461 Y114.445 E2.70655
G1 X49.173 Y116.433 E2.8892
G1 X49.053 Y117.496 E2.98647
G1 X48.894 Y119.434 E3.16328
G1 X48.809 Y121.472 E3.34876
G1 X48.799 Y122.511 E3.44324
G1 X48.839 Y124.456 E3.62014
G1 X48.965 Y126.509 E3.80717
G1 X49.173 Y128.524 E3.99137
G1 X49.461 Y130.513 E4.17411
G1 X49.817 Y132.426 E4.35104
G1 X50.272 Y134.414 E4.53648
G1 X50.535 Y135.419 E4.63094
G1 X51.099 Y137.33 E4.81212
G1 X51.418 Y138.3 E4.90497
G1 X52.081 Y140.129 E5.08187
G1 X52.867 Y142.048 E5.27043
G1 X53.699 Y143.86 E5.45173
G1 X54.161 Y144.789 E5.54607
G1 X55.094 Y146.531 E5.72576
G1 X55.603 Y147.416 E5.81859
G1 X56.624 Y149.072 E5.99549
G1 X57.213 Y149.964 E6.09269
G1 X57.858 Y150.879 E6.19448
G1 X47.498 Y150.879 E7.13651
G1 X47.498 Y112.441 E10.63166
G1 X47.495 Y112.336 E10.64121
G1 X47.339 Y111.753 E10.69609
G1 X46.824 Y111.156 E10.76778
G1 X46.602 Y111.111 E10.78838
;WIDTH:0.650111
G1 X46.38 Y111.067 E10.80732
;WIDTH:0.600222
G1 X46.158 Y111.023 E10.82461
;WIDTH:0.550333
G1 X45.995 Y110.991 E10.8361
G1 E8.8361 F2400
G92 E0
G1 X97.461 Y171.459 F7800
G1 E2 F2400
;WIDTH:0.475123
G1 F1800
G1 X98.317 Y171.455 E2.04983
G1 X98.076 Y171.75 E2.072
;WIDTH:0.476281
G1 X97.958 Y172.054 E2.09104
;WIDTH:0.500445
G1 X97.899 Y172.42 E2.11398
G1 X97.84 Y172.054 E2.13692
;WIDTH:0.476281
G1 X97.722 Y171.749 E2.15601
;WIDTH:0.475123
G1 X97.501 Y171.504 E2.17522
G1 E.17522 F2400
G92 E0
G1 X146.947 Y124.579 F7800
G1 E2 F2400
;WIDTH:0.7
G1 F1800
G1 X148.299 Y124.579 E2.12294
G1 X148.302 Y132.62 E2.8541
G1 X148.458 Y133.203 E2.90898
G1 X148.973 Y133.802 E2.98081
G1 X149.195 Y133.846 E3.00139
;WIDTH:0.650111
G1 X149.417 Y133.89 E3.02033
;WIDTH:0.600222
G1 X149.639 Y133.935 E3.03764
;WIDTH:0.550333
G1 X149.861 Y133.979 E3.05329
G1 X149.633 Y133.954 E3.06915
;WIDTH:0.600222
G1 X149.405 Y133.929 E3.08668
;WIDTH:0.650111
G1 X149.177 Y133.904 E3.10587
;WIDTH:0.7
G1 X148.949 Y133.879 E3.12673
G1 X146.151 Y133.879 E3.38115
G1 X145.634 Y133.972 E3.42892
G1 X146.077 Y131.947 E3.61741
G1 X146.424 Y129.968 E3.8001
G1 X146.682 Y128.04 E3.97697
G1 X146.792 Y126.976 E4.07423
G1 X146.944 Y124.639 E4.28718
G1 E2.28718 F2400
G92 E0
G1 X145.617 Y110.955 F7800
G1 E2 F2400
G1 F1800
G1 X146.151 Y111.079 E2.04985
G1 X148.949 Y111.079 E2.30427
G1 X149.114 Y111.057 E2.31941
;WIDTH:0.655651
G1 X149.278 Y111.034 E2.3334
;WIDTH:0.611303
G1 X149.442 Y111.012 E2.34631
;WIDTH:0.566955
G1 X149.607 Y110.99 E2.35822
G1 X149.448 Y111.031 E2.36997
;WIDTH:0.611303
G1 X149.29 Y111.073 E2.38273
;WIDTH:0.655651
G1 X149.132 Y111.114 E2.39652
;WIDTH:0.7
G1 X148.973 Y111.156 E2.41147
G1 X148.458 Y111.754 E2.48323
G1 X148.299 Y112.441 E2.54735
G1 X148.299 Y120.379 E3.26915
G1 X146.947 Y120.379 E3.39209
G1 X146.932 Y119.922 E3.43367
G1 X146.788 Y117.934 E3.61491
G1 X146.682 Y116.918 E3.7078
G1 X146.424 Y114.99 E3.88467
G1 X146.077 Y113.011 E4.06736
G1 X145.859 Y111.964 E4.1646
G1 X145.631 Y111.013 E4.25352
G1 E2.25352 F2400
G92 E0
G1 X170.69 Y111.079 F7800
G1 E2 F2400
G1 F1800
G1 X175.299 Y111.079 E2.41909
G1 X175.299 Y120.379 E3.26473
G1 X171.498 Y120.379 E3.61035
G1 X171.498 Y112.441 E4.33215
G1 X171.436 Y112.004 E4.37228
G1 X171.186 Y111.504 E4.42311
G1 X170.735 Y111.118 E4.47709
G1 E2.47709 F2400
G92 E0
G1 X171.498 Y124.579 F7800
G1 E2 F2400
G1 F1800
G1 X175.299 Y124.579 E2.34562
G1 X175.299 Y133.879 E3.19126
G1 X170.69 Y133.879 E3.61035
G1 X171.186 Y133.454 E3.66974
G1 X171.436 Y132.954 E3.72057
G1 X171.498 Y132.516 E3.76079
G1 X171.498 Y124.639 E4.47704
G1 E2.47704 F2400
G92 E0
G1 X43.744 Y111.528 F7800
G1 E2 F2400
G1 F1800
G1 X43.489 Y111.581 E2.02368
G1 X43.198 Y111.779 E2.05568
G1 X43.001 Y112.069 E2.08756
G1 X42.924 Y112.441 E2.1221
G1 X42.924 Y151.504 E5.67408
G1 X41.874 Y151.504 E5.76956
G1 X41.874 Y110.454 E9.50222
G1 X49.685 Y110.453 E10.21247
G1 X50.171 Y110.294 E10.25897
G1 X50.491 Y109.893 E10.30562
;WIDTH:0.67357
G1 X50.587 Y109.568 E10.33513
;WIDTH:0.66111
G1 X50.873 Y108.582 E10.42267
;WIDTH:0.667337
G1 X51.094 Y107.839 E10.48947
G1 X51.473 Y106.679 E10.59464
;WIDTH:0.664788
G1 X52.154 Y104.805 E10.76573
;WIDTH:0.66017
G1 X52.537 Y103.852 E10.85317
;WIDTH:0.66694
G1 X52.784 Y103.25 E10.90921
G1 X53.31 Y102.072 E11.02031
;WIDTH:0.658356
G1 X53.325 Y102.038 E11.02346
;WIDTH:0.659526
G1 X53.767 Y101.098 E11.11179
;WIDTH:0.665778
G1 X54.666 Y99.327 E11.2825
;WIDTH:0.666563
G1 X55.626 Y97.625 E11.45068
;WIDTH:0.658853
G1 X55.633 Y97.613 E11.45186
;WIDTH:0.663787
G1 X56.182 Y96.703 E11.5429
;WIDTH:0.666395
G1 X57.262 Y95.032 E11.71409
;WIDTH:0.666638
G1 X58.05 Y93.893 E11.83331
G1 X58.411 Y93.403 E11.8857
;WIDTH:0.665489
G1 X59.241 Y92.302 E12.00415
G1 X60.24 Y91.067 E12.14061
;WIDTH:0.663743
G1 X60.466 Y90.792 E12.1711
;WIDTH:0.664902
G1 X61.101 Y90.059 E12.25433
G1 X62.238 Y88.815 E12.39897
;WIDTH:0.664709
G1 X62.431 Y88.609 E12.42319
;WIDTH:0.667349
G1 X63.678 Y87.357 E12.57547
;WIDTH:0.663689
G1 X64.507 Y86.56 E12.67396
G1 X65.861 Y85.348 E12.8296
;WIDTH:0.66358
G1 X67.407 Y84.068 E13.00147
;WIDTH:0.662894
G1 X68.271 Y83.396 E13.09509
G1 X69.82 Y82.269 E13.25893
;WIDTH:0.662419
G1 X69.87 Y82.234 E13.26415
;WIDTH:0.662894
G1 X71.541 Y81.122 E13.43582
;WIDTH:0.66327
G1 X73.229 Y80.093 E13.60501
;WIDTH:0.661782
G1 X74.125 Y79.591 E13.69269
;WIDTH:0.667409
G1 X74.86 Y79.186 E13.76502
G1 X75.855 Y78.676 E13.86138
;WIDTH:0.657997
G1 X75.899 Y78.654 E13.86555
;WIDTH:0.667321
G1 X76.607 Y78.301 E13.93372
G1 X77.666 Y77.811 E14.03427
;WIDTH:0.658052
G1 X77.699 Y77.796 E14.03734
;WIDTH:0.661604
G1 X78.619 Y77.385 E14.12333
G1 X79.576 Y76.991 E14.21165
;WIDTH:0.665119
G1 X81.437 Y76.285 E14.38253
;WIDTH:0.665743
G1 X82.957 Y75.769 E14.52049
G1 X85.256 Y75.098 E14.72632
;WIDTH:0.659254
G1 X86.235 Y74.848 E14.81221
;WIDTH:0.666511
G1 X87.705 Y74.508 E14.94205
;WIDTH:0.666092
G1 X88.199 Y74.41 E14.98536
;WIDTH:0.666419
G1 X90.161 Y74.055 E15.15692
;WIDTH:0.665771
G1 X91.558 Y73.849 E15.27829
G1 X93.104 Y73.675 E15.41201
;WIDTH:0.665468
G1 X95.104 Y73.519 E15.58434
;WIDTH:0.665141
G1 X97.11 Y73.445 E15.75669
;WIDTH:0.664896
G1 X97.418 Y73.439 E15.78313
;WIDTH:0.667159
G1 X99.159 Y73.458 E15.93313
;WIDTH:0.664354
G1 X100.355 Y73.498 E16.03574
;WIDTH:0.667587
G1 X102.194 Y73.631 E16.1947
;WIDTH:0.667394
G1 X103.267 Y73.733 E16.28759
G1 X104.159 Y73.844 E16.36506
;WIDTH:0.663142
G1 X105.221 Y73.985 E16.45673
G1 X107.09 Y74.305 E16.61898
;WIDTH:0.662669
G1 X107.151 Y74.316 E16.62428
;WIDTH:0.662905
G1 X109.129 Y74.74 E16.7973
;WIDTH:0.66311
G1 X111.044 Y75.231 E16.96645
;WIDTH:0.661767
G1 X112.013 Y75.518 E17.05272
;WIDTH:0.66744
G1 X112.84 Y75.769 E17.12721
G1 X113.876 Y76.118 E17.22144
;WIDTH:0.657955
G1 X113.923 Y76.135 E17.22568
;WIDTH:0.667475
G1 X114.693 Y76.403 E17.29596
G1 X115.775 Y76.817 E17.39582
;WIDTH:0.658168
G1 X115.821 Y76.835 E17.40001
;WIDTH:0.667217
G1 X116.519 Y77.11 E17.46465
G1 X117.613 Y77.58 E17.56724
;WIDTH:0.658043
G1 X117.646 Y77.594 E17.57028
;WIDTH:0.660191
G1 X118.579 Y78.013 E17.65736
;WIDTH:0.66512
G1 X120.38 Y78.896 E17.82957
;WIDTH:0.665448
G1 X122.133 Y79.847 E18.00089
;WIDTH:0.659546
G1 X123.006 Y80.356 E18.08683
;WIDTH:0.666645
G1 X124.666 Y81.392 E18.25526
;WIDTH:0.658892
G1 X124.708 Y81.418 E18.25946
;WIDTH:0.666428
G1 X126.325 Y82.521 E18.42788
;WIDTH:0.658886
G1 X126.336 Y82.528 E18.42899
;WIDTH:0.666183
G1 X127.936 Y83.717 E18.60044
;WIDTH:0.663842
G1 X128.779 Y84.386 E18.69264
;WIDTH:0.666703
G1 X129.816 Y85.245 E18.80856
G1 X130.298 Y85.67 E18.86388
;WIDTH:0.66691
G1 X131.277 Y86.549 E18.97718
G1 X131.768 Y87.018 E19.03565
;WIDTH:0.664901
G1 X132.694 Y87.918 E19.14647
G1 X133.853 Y89.129 E19.29033
;WIDTH:0.664616
G1 X135.188 Y90.627 E19.46245
;WIDTH:0.664228
G1 X136.46 Y92.179 E19.63447
;WIDTH:0.663181
G1 X137.111 Y93.036 E19.72656
;WIDTH:0.6675
G1 X137.747 Y93.893 E19.81855
G1 X138.853 Y95.502 E19.98685
;WIDTH:0.667513
G1 X139.9 Y97.163 E20.1561
G1 X140.407 Y98.033 E20.2429
;WIDTH:0.661982
G1 X140.913 Y98.922 E20.33025
;WIDTH:0.663332
G1 X141.835 Y100.69 E20.50092
;WIDTH:0.661564
G1 X142.276 Y101.617 E20.58852
;WIDTH:0.667359
G1 X142.625 Y102.364 E20.65958
G1 X143.067 Y103.389 E20.75578
;WIDTH:0.657992
G1 X143.086 Y103.434 E20.75992
;WIDTH:0.667326
G1 X143.392 Y104.166 E20.82829
G1 X143.81 Y105.252 E20.92857
;WIDTH:0.657991
G1 X143.823 Y105.287 E20.93174
;WIDTH:0.660375
G1 X144.174 Y106.247 E21.01879
;WIDTH:0.664937
G1 X144.799 Y108.154 E21.19103
;WIDTH:0.665448
G1 X145.267 Y109.773 E21.3358
;WIDTH:0.681418
G1 X145.353 Y109.991 E21.35648
;WIDTH:0.7
G1 X145.738 Y110.358 E21.40485
G1 X146.151 Y110.454 E21.44341
G1 X175.924 Y110.454 E24.15065
G1 X175.924 Y121.004 E25.10996
G1 X170.874 Y121.004 E25.56915
G1 X170.874 Y112.441 E26.34778
G1 X170.836 Y112.179 E26.37185
G1 X170.686 Y111.879 E26.40235
G1 X170.377 Y111.614 E26.43936
G1 X169.936 Y111.504 E26.48069
G1 X149.861 Y111.504 E28.3061
G1 X149.699 Y111.518 E28.32089
G1 X149.328 Y111.67 E28.35735
G1 X149.019 Y112.029 E28.40042
G1 X148.924 Y112.441 E28.43887
G1 X148.924 Y121.004 E29.2175
G1 X146.341 Y121.004 E29.45237
G1 X146.308 Y119.967 E29.54671
G1 X146.166 Y117.998 E29.72622
G1 X146.063 Y117.001 E29.81736
G1 X145.804 Y115.073 E29.99425
G1 X145.461 Y113.119 E30.17464
G1 X145.251 Y112.11 E30.26835
G1 X144.977 Y110.967 E30.37523
G1 X144.7 Y109.936 E30.4723
;WIDTH:0.665448
G1 X144.237 Y108.315 E30.61712
;WIDTH:0.664937
G1 X143.619 Y106.431 E30.7873
;WIDTH:0.663441
G1 X143.267 Y105.464 E30.8754
;WIDTH:0.667359
G1 X142.532 Y103.622 E31.04631
G1 X141.735 Y101.836 E31.21486
;WIDTH:0.663332
G1 X141.262 Y100.856 E31.308
G1 X140.393 Y99.194 E31.46853
;WIDTH:0.662733
G1 X139.887 Y98.297 E31.55659
;WIDTH:0.6675
G1 X138.862 Y96.599 E31.72756
G1 X137.79 Y94.976 E31.89523
;WIDTH:0.657853
G1 X137.769 Y94.945 E31.89841
;WIDTH:0.667423
G1 X136.642 Y93.38 E32.06463
;WIDTH:0.657922
G1 X136.625 Y93.358 E32.06699
;WIDTH:0.661087
G1 X136.006 Y92.549 E32.15385
;WIDTH:0.664228
G1 X134.749 Y91.015 E32.32386
;WIDTH:0.664616
G1 X133.431 Y89.534 E32.49392
;WIDTH:0.664901
G1 X132.072 Y88.127 E32.6618
;WIDTH:0.660197
G1 X131.342 Y87.417 E32.7485
;WIDTH:0.66691
G1 X129.907 Y86.103 E32.91605
;WIDTH:0.65859
G1 X129.879 Y86.078 E32.91924
;WIDTH:0.666703
G1 X128.405 Y84.834 E33.08528
;WIDTH:0.658661
G1 X128.384 Y84.817 E33.08757
;WIDTH:0.659128
G1 X127.585 Y84.184 E33.1742
;WIDTH:0.666183
G1 X125.994 Y83.001 E33.34472
;WIDTH:0.666428
G1 X124.355 Y81.885 E33.51533
;WIDTH:0.666645
G1 X122.68 Y80.841 E33.68522
;WIDTH:0.665448
G1 X121.518 Y80.174 E33.80031
G1 X120.104 Y79.412 E33.93829
;WIDTH:0.66512
G1 X118.323 Y78.539 E34.10858
;WIDTH:0.663504
G1 X117.385 Y78.116 E34.19668
;WIDTH:0.667217
G1 X115.569 Y77.362 E34.3661
;WIDTH:0.66744
G1 X113.692 Y76.671 E34.5385
G1 X111.814 Y76.066 E34.70856
;WIDTH:0.66311
G1 X110.807 Y75.775 E34.79825
G1 X108.984 Y75.308 E34.95927
;WIDTH:0.662905
G1 X107.029 Y74.891 E35.13025
;WIDTH:0.662669
G1 X106.991 Y74.884 E35.13355
;WIDTH:0.663142
G1 X105.045 Y74.553 E35.30245
;WIDTH:0.661744
G1 X104.053 Y74.418 E35.38791
;WIDTH:0.667394
G1 X102.136 Y74.211 E35.55409
;WIDTH:0.658009
G1 X102.099 Y74.208 E35.55724
;WIDTH:0.667587
G1 X100.113 Y74.074 E35.72885
;WIDTH:0.660726
G1 X99.112 Y74.04 E35.8142
;WIDTH:0.667159
G1 X97.129 Y74.03 E35.98504
;WIDTH:0.665141
G1 X95.147 Y74.102 E36.15532
;WIDTH:0.665468
G1 X93.17 Y74.256 E36.32567
;WIDTH:0.665771
G1 X91.211 Y74.488 E36.49522
;WIDTH:0.659245
G1 X90.22 Y74.637 E36.5804
;WIDTH:0.666419
G1 X88.306 Y74.984 E36.74777
;WIDTH:0.666092
G1 X87.829 Y75.086 E36.78972
;WIDTH:0.666511
G1 X86.344 Y75.423 E36.92076
;WIDTH:0.665674
G1 X85 Y75.776 E37.04017
G1 X83.521 Y76.207 E37.17255
G1 X81.624 Y76.839 E37.34438
;WIDTH:0.665119
G1 X79.786 Y77.537 E37.51318
;WIDTH:0.663709
G1 X78.607 Y78.03 E37.62263
;WIDTH:0.66346
G1 X77.912 Y78.339 E37.68775
;WIDTH:0.667409
G1 X76.123 Y79.194 E37.85864
G1 X74.378 Y80.117 E38.02878
;WIDTH:0.66327
G1 X73.445 Y80.647 E38.12061
G1 X71.846 Y81.623 E38.28094
;WIDTH:0.662894
G1 X70.196 Y82.723 E38.45055
;WIDTH:0.662419
G1 X70.166 Y82.744 E38.45368
;WIDTH:0.662894
G1 X68.584 Y83.896 E38.62106
;WIDTH:0.66238
G1 X67.78 Y84.521 E38.70808
;WIDTH:0.66358
G1 X66.252 Y85.785 E38.87789
;WIDTH:0.663689
G1 X64.797 Y87.092 E39.0454
;WIDTH:0.661228
G1 X64.062 Y87.797 E39.13226
;WIDTH:0.667349
G1 X62.67 Y89.21 E39.30319
;WIDTH:0.664902
G1 X61.356 Y90.659 E39.47106
;WIDTH:0.661741
G1 X60.695 Y91.434 E39.55801
;WIDTH:0.665489
G1 X59.462 Y92.975 E39.72755
;WIDTH:0.659332
G1 X58.861 Y93.776 E39.81268
;WIDTH:0.666638
G1 X57.741 Y95.366 E39.98008
;WIDTH:0.658895
G1 X57.72 Y95.397 E39.98326
;WIDTH:0.666395
G1 X56.674 Y97.017 E40.14917
;WIDTH:0.658791
G1 X56.659 Y97.041 E40.15157
;WIDTH:0.663787
G1 X56.133 Y97.913 E40.2388
;WIDTH:0.666563
G1 X54.986 Y99.983 E40.44247
;WIDTH:0.665778
G1 X54.288 Y101.361 E40.57524
;WIDTH:0.663801
G1 X53.843 Y102.308 E40.66487
;WIDTH:0.66694
G1 X53.065 Y104.102 E40.83327
;WIDTH:0.664788
G1 X52.602 Y105.277 E40.94164
G1 X52.024 Y106.877 E41.08761
;WIDTH:0.664294
G1 X51.955 Y107.088 E41.10664
;WIDTH:0.667337
