; generated by PrusaSlicer 2.6.0-alpha5+win64 on 2023-06-21 at 19:05:11 UTC

; 

; external perimeters extrusion width = 0.45mm
; perimeters extrusion width = 0.45mm
; infill extrusion width = 0.45mm
; solid infill extrusion width = 0.45mm
; top infill extrusion width = 0.40mm
; first layer extrusion width = 0.70mm

M107
M104 S200 ; set temperature
;TYPE:Custom
G28 ; home all axes
G1 Z5 F5000 ; lift nozzle
M109 S200 ; set temperature and wait for it to be reached
G21 ; set units to millimeters
G90 ; use absolute coordinates
M82 ; use absolute distances for extrusion
G92 E0
; Filament gcode
M107
;LAYER_CHANGE
;Z:0.35
;HEIGHT:0.35
G1 Z.35 F7800
G1 E-2 F2400
G92 E0
G1 X54.923 Y79.308 F7800
G1 E2 F2400
;TYPE:Skirt/Brim
;WIDTH:0.7
G1 F1800
G1 X56.448 Y78.252 E2.16867
G1 X58.07 Y77.322 E2.33868
G1 X60.122 Y76.356 E2.54491
G1 X61.873 Y75.698 E2.715
G1 X64.054 Y75.075 E2.92125
G1 X65.887 Y74.708 E3.09123
G1 X68.354 Y74.429 E3.31698
G1 X70.623 Y74.383 E3.52334
G1 X149.505 Y80.394 E10.71684
G1 X151.727 Y80.963 E10.9254
G1 X153.622 Y82.255 E11.13395
G1 X154.963 Y84.115 E11.34245
G1 X155.624 Y87 E11.61158
G1 X155.624 Y113 E13.97575
G1 X155.227 Y115.259 E14.18431
G1 X154.083 Y117.247 E14.39287
G1 X152.331 Y118.726 E14.60135
G1 X149.505 Y119.606 E14.87049
G1 X70.837 Y125.611 E22.04455
G1 X68.141 Y125.557 E22.28975
G1 X66.494 Y125.383 E22.44034
G1 X64.862 Y125.104 E22.59089
G1 X63.252 Y124.72 E22.74139
G1 X61.684 Y124.237 E22.89058
G1 X58.808 Y123.052 E23.17342
G1 X57.158 Y122.174 E23.34337
G1 X55.084 Y120.836 E23.5678
G1 X53.296 Y119.432 E23.77452
G1 X51.927 Y118.166 E23.94407
G1 X50.381 Y116.485 E24.15174
G1 X49.231 Y115.011 E24.32174
G1 X47.876 Y112.93 E24.54754
G1 X46.819 Y110.923 E24.7538
G1 X46.084 Y109.204 E24.9238
G1 X45.364 Y107.052 E25.13014
G1 X44.915 Y105.237 E25.30015
G1 X44.526 Y102.785 E25.5259
G1 X44.38 Y100.521 E25.73219
G1 X44.41 Y98.652 E25.90216
G1 X44.63 Y96.393 E26.10854
G1 X45.098 Y93.955 E26.33427
G1 X45.8 Y91.574 E26.55999
G1 X46.478 Y89.832 E26.72996
G1 X47.47 Y87.791 E26.93631
G1 X48.42 Y86.181 E27.10629
G1 X49.725 Y84.329 E27.3123
G1 X50.924 Y82.89 E27.48262
G1 X52.512 Y81.27 E27.68889
G1 X54.407 Y79.665 E27.9147
G1 X54.873 Y79.342 E27.96626
G1 E25.96626 F2400
G92 E0
G1 X120.399 Y102.1 F7800
G1 E2 F2400
;TYPE:Perimeter
;WIDTH:0.7
G1 F1800
G1 X120.399 Y109.837 E2.70352
G1 X120.461 Y110.475 E2.76181
G1 X120.711 Y110.975 E2.81264
G1 X121.208 Y111.4 E2.8721
G1 X117.273 Y111.4 E3.22991
G1 X117.273 Y103.663 E3.93343
G1 X117.211 Y103.025 E3.99172
G1 X116.961 Y102.525 E4.04255
G1 X116.465 Y102.1 E4.10194
G1 X120.339 Y102.1 E4.4542
G1 E2.4542 F2400
G92 E0
G1 X121.208 Y88.6 F7800
G1 E2 F2400
G1 F1800
G1 X120.711 Y89.025 E2.05946
G1 X120.461 Y89.525 E2.11029
G1 X120.399 Y89.962 E2.15042
G1 X120.399 Y97.9 E2.87222
G1 X116.465 Y97.9 E3.22994
G1 X116.961 Y97.475 E3.28933
G1 X117.211 Y96.975 E3.34016
G1 X117.273 Y96.538 E3.38029
G1 X117.273 Y88.6 E4.10209
G1 X121.148 Y88.6 E4.45444
G1 E2.45444 F2400
G92 E0
G1 X143.476 Y89.404 F7800
G1 E2 F2400
G1 F1800
G1 X143.286 Y89.025 E2.03855
G1 X142.79 Y88.6 E2.09794
G1 X147.399 Y88.6 E2.51703
G1 X147.399 Y97.9 E3.36267
G1 X143.599 Y97.9 E3.7082
G1 X143.599 Y89.962 E4.43
G1 X143.536 Y89.525 E4.47015
G1 X143.502 Y89.458 E4.47698
G1 E2.47698 F2400
G92 E0
G1 X147.399 Y102.1 F7800
G1 E2 F2400
G1 F1800
G1 X147.399 Y111.4 E2.84564
G1 X142.79 Y111.4 E3.26473
G1 X143.286 Y110.975 E3.32412
G1 X143.536 Y110.475 E3.37495
G1 X143.599 Y110.038 E3.4151
G1 X143.599 Y102.1 E4.1369
G1 X147.339 Y102.1 E4.47698
G1 E2.47698 F2400
G92 E0
G1 X88.389 Y102.011 F7800
G1 E2 F2400
;WIDTH:0.522607
G1 F1800
G1 X87.693 Y102.359 E2.05067
;WIDTH:0.489379
G1 X87.519 Y102.536 E2.06563
;WIDTH:0.511791
G1 X87.21 Y103.146 E2.10908
G1 X87.37 Y101.994 E2.18298
;WIDTH:0.489379
G1 X87.557 Y101.994 E2.19425
;WIDTH:0.522607
G1 X88.329 Y102.01 E2.24453
G1 E.24453 F2400
G92 E0
G1 X88.643 Y98 F7800
G1 E2 F2400
;WIDTH:0.500445
G1 F1800
G1 X87.557 Y98.006 E2.06722
;WIDTH:0.48938
G1 X87.37 Y98.006 E2.07849
G1 X87.325 Y97.578 E2.10443
;WIDTH:0.519535
G1 X87.251 Y97.015 E2.14115
G1 X87.534 Y97.482 E2.17646
;WIDTH:0.48938
G1 X87.693 Y97.641 E2.19001
;WIDTH:0.500445
G1 X88.587 Y97.979 E2.24916
G1 E.24916 F2400
G92 E0
G1 X142.906 Y89.64 F7800
G1 E2 F2400
;WIDTH:0.7
G1 F1800
G1 X142.786 Y89.4 E2.0244
G1 X142.477 Y89.135 E2.06141
G1 X142.036 Y89.025 E2.10274
G1 X121.961 Y89.025 E3.92815
G1 X121.799 Y89.039 E3.94294
G1 X121.52 Y89.135 E3.96977
G1 X121.211 Y89.4 E4.00678
G1 X121.061 Y89.7 E4.03728
G1 X121.024 Y89.962 E4.06134
G1 X121.024 Y98.525 E4.83997
G1 X86.901 Y98.525 E7.94276
G1 X86.811 Y97.659 E8.02193
G1 X86.71 Y97.027 E8.08013
G1 X86.481 Y95.942 E8.18096
G1 X86.309 Y95.299 E8.24148
G1 X85.938 Y94.164 E8.35006
G1 X85.544 Y93.189 E8.44568
G1 X84.819 Y91.728 E8.59399
G1 X84.021 Y90.433 E8.73231
G1 X83.351 Y89.519 E8.83536
G1 X82.939 Y89.014 E8.89462
G1 X82.59 Y88.617 E8.94268
G1 X81.704 Y87.707 E9.05817
G1 X81.027 Y87.105 E9.14055
G1 X80.325 Y86.528 E9.22318
G1 X79.284 Y85.791 E9.33916
G1 X78.855 Y85.519 E9.38535
G1 X78.325 Y85.208 E9.44123
G1 X77.272 Y84.662 E9.54909
G1 X76.688 Y84.4 E9.60729
G1 X75.608 Y83.979 E9.71269
G1 X74.999 Y83.779 E9.77098
G1 X73.881 Y83.475 E9.87633
G1 X73.254 Y83.341 E9.93463
G1 X72.16 Y83.164 E10.0354
G1 X70.917 Y83.05 E10.1489
G1 X69.675 Y83.029 E10.26185
G1 X68.518 Y83.09 E10.3672
G1 X67.881 Y83.159 E10.42546
G1 X66.685 Y83.353 E10.53563
G1 X66.11 Y83.477 E10.58912
G1 X65.04 Y83.766 E10.6899
G1 X64.554 Y83.932 E10.7366
G1 X63.529 Y84.315 E10.8361
G1 X62.756 Y84.648 E10.91263
G1 X62.046 Y85.009 E10.98506
G1 X61.159 Y85.509 E11.07765
G1 X60.157 Y86.17 E11.1868
G1 X59.285 Y86.837 E11.28663
G1 X58.319 Y87.682 E11.40333
G1 X57.879 Y88.115 E11.45946
G1 X57.07 Y89.001 E11.56856
G1 X56.325 Y89.942 E11.67769
G1 X55.654 Y90.925 E11.78591
G1 X55.052 Y91.953 E11.89423
G1 X54.77 Y92.502 E11.95035
G1 X54.39 Y93.343 E12.03427
G1 X54.004 Y94.331 E12.13072
G1 X53.689 Y95.296 E12.22302
G1 X53.412 Y96.395 E12.32608
G1 X53.303 Y96.989 E12.38099
G1 X53.143 Y98.072 E12.48054
G1 X53.053 Y99.171 E12.58081
G1 X53.033 Y100.276 E12.6813
G1 X53.069 Y101.232 E12.76829
G1 X53.189 Y102.359 E12.87135
G1 X53.408 Y103.589 E12.98495
G1 X53.668 Y104.599 E13.07978
G1 X53.881 Y105.325 E13.14858
G1 X54.085 Y105.906 E13.20457
G1 X54.532 Y106.992 E13.31136
G1 X55.076 Y108.09 E13.42278
G1 X55.675 Y109.109 E13.53026
G1 X55.967 Y109.536 E13.5773
G1 X56.625 Y110.438 E13.67882
G1 X57.13 Y111.068 E13.75224
G1 X57.914 Y111.92 E13.85752
G1 X58.461 Y112.444 E13.9264
G1 X59.257 Y113.143 E14.02273
G1 X60.212 Y113.869 E14.13181
G1 X61.216 Y114.525 E14.24086
G1 X62.248 Y115.102 E14.34837
G1 X62.803 Y115.373 E14.40453
G1 X63.906 Y115.843 E14.51355
G1 X65.04 Y116.234 E14.62262
G1 X66.183 Y116.54 E14.73021
G1 X67.214 Y116.735 E14.82562
G1 X67.972 Y116.853 E14.89537
G1 X69.167 Y116.954 E15.00442
G1 X70.35 Y116.971 E15.112
G1 X70.966 Y116.947 E15.16806
G1 X72.095 Y116.844 E15.27115
G1 X73.328 Y116.645 E15.38472
G1 X73.931 Y116.513 E15.44085
G1 X75.071 Y116.199 E15.54837
G1 X75.656 Y116.004 E15.60444
G1 X76.846 Y115.531 E15.72088
G1 X77.318 Y115.315 E15.76808
G1 X78.352 Y114.778 E15.87402
G1 X79.725 Y113.901 E16.02216
G1 X80.378 Y113.432 E16.09526
G1 X81.289 Y112.676 E16.20291
G1 X81.759 Y112.24 E16.2612
G1 X82.577 Y111.398 E16.36794
G1 X83.329 Y110.509 E16.47382
G1 X84.034 Y109.547 E16.58227
G1 X84.385 Y109.009 E16.64068
G1 X84.986 Y107.97 E16.74982
G1 X85.505 Y106.908 E16.8573
G1 X85.745 Y106.339 E16.91345
G1 X86.152 Y105.215 E17.02215
G1 X86.471 Y104.099 E17.12769
G1 X86.687 Y103.054 E17.22472
G1 X86.818 Y102.29 E17.2952
G1 X86.901 Y101.475 E17.36969
G1 X121.024 Y101.475 E20.47248
G1 X121.024 Y109.837 E21.23283
G1 X121.061 Y110.3 E21.27506
G1 X121.211 Y110.6 E21.30556
G1 X121.52 Y110.865 E21.34257
G1 X121.961 Y110.975 E21.3839
G1 X142.036 Y110.975 E23.20931
G1 X142.198 Y110.961 E23.2241
G1 X142.477 Y110.865 E23.25093
G1 X142.786 Y110.6 E23.28794
G1 X142.936 Y110.3 E23.31844
G1 X142.974 Y110.038 E23.34251
G1 X142.974 Y101.475 E24.12114
G1 X148.024 Y101.475 E24.58033
G1 X148.024 Y112.025 E25.53964
G1 X116.649 Y112.025 E28.39255
G1 X116.649 Y103.663 E29.1529
G1 X116.611 Y103.2 E29.19514
G1 X116.461 Y102.9 E29.22564
G1 X116.152 Y102.635 E29.26265
G1 X115.711 Y102.525 E29.30398
G1 X88.643 Y102.525 E31.76526
G1 X88.481 Y102.539 E31.78005
G1 X87.964 Y102.817 E31.83343
G1 X87.728 Y103.26 E31.87907
G1 X87.464 Y104.457 E31.99053
G1 X87.139 Y105.576 E32.09648
G1 X86.741 Y106.678 E32.20302
G1 X86.281 Y107.731 E32.30751
G1 X85.744 Y108.773 E32.4141
G1 X85.145 Y109.772 E32.52002
G1 X84.482 Y110.73 E32.62596
G1 X83.754 Y111.649 E32.73257
G1 X83.381 Y112.075 E32.78406
G1 X82.568 Y112.919 E32.89062
G1 X81.707 Y113.704 E32.99657
G1 X80.792 Y114.436 E33.10312
G1 X80.333 Y114.769 E33.15468
G1 X79.35 Y115.409 E33.26134
G1 X78.336 Y115.981 E33.3672
G1 X77.279 Y116.489 E33.47384
G1 X76.758 Y116.71 E33.5253
G1 X75.65 Y117.116 E33.6326
G1 X75.099 Y117.288 E33.68509
G1 X73.974 Y117.581 E33.7908
G1 X72.823 Y117.802 E33.89737
G1 X72.252 Y117.883 E33.94981
G1 X71.095 Y117.991 E34.05547
G1 X69.931 Y118.024 E34.16135
G1 X68.767 Y117.982 E34.26726
G1 X67.6 Y117.865 E34.37391
G1 X67.04 Y117.78 E34.42541
G1 X65.89 Y117.55 E34.53205
G1 X64.766 Y117.248 E34.63788
G1 X63.655 Y116.872 E34.74453
G1 X63.128 Y116.664 E34.79605
G1 X62.053 Y116.179 E34.90329
G1 X61.539 Y115.916 E34.95579
G1 X60.524 Y115.334 E35.06218
G1 X60.047 Y115.028 E35.11371
G1 X59.084 Y114.345 E35.22106
G1 X58.639 Y113.995 E35.27254
G1 X57.754 Y113.227 E35.37909
G1 X56.918 Y112.4 E35.48602
G1 X56.146 Y111.532 E35.59165
G1 X55.79 Y111.091 E35.64319
G1 X55.095 Y110.137 E35.75052
G1 X54.779 Y109.657 E35.80278
G1 X54.474 Y109.158 E35.85596
G1 X53.916 Y108.139 E35.9616
G1 X53.424 Y107.083 E36.06753
G1 X52.999 Y105.991 E36.17408
G1 X52.816 Y105.446 E36.22636
G1 X52.649 Y104.886 E36.2795
G1 X52.37 Y103.758 E36.38516
G1 X52.163 Y102.601 E36.49204
G1 X52.032 Y101.447 E36.59765
G1 X51.995 Y100.873 E36.64995
G1 X51.976 Y100.299 E36.70217
G1 X51.995 Y99.127 E36.80875
G1 X52.091 Y97.956 E36.91559
G1 X52.259 Y96.806 E37.02127
G1 X52.368 Y96.25 E37.07279
G1 X52.653 Y95.102 E37.18035
G1 X53.004 Y93.994 E37.28603
G1 X53.425 Y92.914 E37.39143
G1 X53.916 Y91.861 E37.49708
G1 X54.481 Y90.831 E37.6039
G1 X55.103 Y89.85 E37.70952
G1 X55.434 Y89.38 E37.76179
G1 X55.787 Y88.913 E37.81502
G1 X56.531 Y88.021 E37.92064
G1 X57.34 Y87.169 E38.02747
G1 X58.193 Y86.38 E38.13313
G1 X59.084 Y85.655 E38.23758
G1 X60.046 Y84.972 E38.34486
G1 X60.533 Y84.661 E38.3974
G1 X61.541 Y84.083 E38.50306
G1 X62.593 Y83.567 E38.60961
G1 X63.123 Y83.338 E38.66211
G1 X64.211 Y82.93 E38.76777
G1 X65.336 Y82.589 E38.87466
G1 X66.467 Y82.325 E38.98027
G1 X67.611 Y82.134 E39.08573
G1 X68.767 Y82.018 E39.19137
G1 X69.941 Y81.976 E39.29819
G1 X71.102 Y82.009 E39.4038
G1 X72.257 Y82.117 E39.50928
G1 X73.404 Y82.3 E39.6149
G1 X74.54 Y82.557 E39.72081
G1 X75.665 Y82.889 E39.82747
G1 X76.2 Y83.075 E39.87897
G1 X77.294 Y83.517 E39.98626
G1 X77.808 Y83.755 E40.03776
G1 X78.857 Y84.302 E40.14533
G1 X79.85 Y84.905 E40.25097
G1 X80.792 Y85.564 E40.35551
G1 X81.707 Y86.296 E40.46206
G1 X82.566 Y87.079 E40.56775
G1 X82.979 Y87.493 E40.62092
G1 X83.377 Y87.921 E40.67406
G1 X84.128 Y88.808 E40.77974
G1 X84.827 Y89.753 E40.88662
G1 X85.457 Y90.729 E40.99225
G1 X85.74 Y91.22 E41.04378
G1 X86.281 Y92.269 E41.1511
G1 X86.516 Y92.784 E41.20257
G1 X86.953 Y93.881 E41.30994
G1 X87.137 Y94.417 E41.36147
G1 X87.464 Y95.543 E41.46809
G1 X87.728 Y96.74 E41.57955
G1 X87.93 Y97.145 E41.6207
G1 X88.032 Y97.248 E41.63388
G1 X88.643 Y97.475 E41.69315
G1 X115.711 Y97.475 E44.15443
G1 X115.873 Y97.461 E44.16922
G1 X116.152 Y97.365 E44.19605
G1 X116.461 Y97.1 E44.23306
G1 X116.611 Y96.8 E44.26356
G1 X116.649 Y96.538 E44.28763
G1 X116.649 Y87.975 E45.06626
G1 X148.024 Y87.975 E47.91917
G1 X148.024 Y98.525 E48.87848
G1 X142.974 Y98.525 E49.33767
G1 X142.974 Y89.962 E50.1163
G1 X142.933 Y89.693 E50.14104
G1 X142.336 Y89.875 F7800
;TYPE:External perimeter
G1 F1800
G1 X142.183 Y89.687 E50.16308
G1 X142.036 Y89.65 E50.17686
G1 X121.907 Y89.655 E52.00718
G1 X121.711 Y89.775 E52.02808
G1 X121.649 Y89.962 E52.04599
G1 X121.649 Y99.15 E52.88145
G1 X86.324 Y99.15 E56.09354
G1 X86.194 Y97.757 E56.22076
G1 X86.099 Y97.156 E56.27609
G1 X85.87 Y96.072 E56.37683
G1 X85.715 Y95.492 E56.43142
G1 X85.358 Y94.395 E56.53632
G1 X84.964 Y93.423 E56.63169
G1 X84.417 Y92.29 E56.74609
G1 X84.03 Y91.618 E56.8166
G1 X83.516 Y90.803 E56.90421
G1 X82.825 Y89.862 E57.01037
G1 X82.121 Y89.03 E57.10947
G1 X81.771 Y88.668 E57.15526
G1 X81.282 Y88.167 E57.21892
G1 X80.629 Y87.587 E57.29834
G1 X79.801 Y86.922 E57.39491
G1 X79.026 Y86.368 E57.48153
G1 X78.036 Y85.762 E57.58708
G1 X77.015 Y85.232 E57.69168
G1 X76.46 Y84.982 E57.74703
G1 X75.412 Y84.572 E57.84936
G1 X74.834 Y84.382 E57.90468
G1 X73.749 Y84.086 E58.00694
G1 X73.154 Y83.958 E58.06228
G1 X72.038 Y83.778 E58.16507
G1 X70.893 Y83.675 E58.2696
G1 X69.707 Y83.653 E58.37746
G1 X68.584 Y83.711 E58.47971
G1 X67.857 Y83.795 E58.54626
G1 X66.816 Y83.964 E58.64216
G1 X66.273 Y84.081 E58.69267
G1 X64.759 Y84.522 E58.83606
G1 X63.775 Y84.89 E58.93159
G1 X63.033 Y85.208 E59.00499
G1 X62.352 Y85.554 E59.07445
G1 X61.502 Y86.031 E59.16308
G1 X60.536 Y86.667 E59.26825
G1 X59.307 Y87.642 E59.4109
G1 X58.756 Y88.129 E59.47777
G1 X58.34 Y88.538 E59.53082
G1 X57.559 Y89.39 E59.63592
G1 X56.841 Y90.295 E59.74096
G1 X56.187 Y91.251 E59.84628
G1 X55.607 Y92.24 E59.95053
G1 X55.34 Y92.759 E60.0036
G1 X54.867 Y93.807 E60.10815
G1 X54.598 Y94.526 E60.17795
G1 X54.295 Y95.449 E60.26628
G1 X54.018 Y96.548 E60.36934
G1 X53.765 Y98.138 E60.51574
G1 X53.677 Y99.194 E60.61209
G1 X53.658 Y100.254 E60.70849
G1 X53.691 Y101.166 E60.79147
G1 X53.811 Y102.293 E60.89453
G1 X54.016 Y103.446 E61.00102
G1 X54.268 Y104.424 E61.09285
G1 X54.471 Y105.119 E61.15869
G1 X54.664 Y105.67 E61.21178
G1 X55.092 Y106.716 E61.31455
G1 X55.615 Y107.774 E61.42187
G1 X56.197 Y108.765 E61.52637
G1 X57.114 Y110.049 E61.66984
G1 X57.59 Y110.646 E61.73927
G1 X58.351 Y111.474 E61.84153
G1 X58.874 Y111.975 E61.90739
G1 X59.636 Y112.646 E61.99971
G1 X60.555 Y113.346 E62.10475
G1 X61.521 Y113.98 E62.20982
G1 X62.524 Y114.541 E62.31432
G1 X63.049 Y114.799 E62.36751
G1 X64.111 Y115.253 E62.47253
G1 X65.203 Y115.631 E62.57761
G1 X66.313 Y115.929 E62.68212
G1 X67.312 Y116.118 E62.77457
G1 X68.025 Y116.23 E62.8402
G1 X69.177 Y116.329 E62.94534
G1 X70.326 Y116.347 E63.04983
G1 X70.91 Y116.324 E63.10297
G1 X72.038 Y116.222 E63.20596
G1 X73.195 Y116.035 E63.31253
G1 X73.766 Y115.91 E63.36568
G1 X74.874 Y115.606 E63.47015
G1 X75.428 Y115.422 E63.52323
G1 X76.498 Y115.003 E63.62772
G1 X77.03 Y114.761 E63.68086
G1 X78.045 Y114.233 E63.78489
G1 X79.361 Y113.393 E63.92685
G1 X79.979 Y112.95 E63.99599
G1 X80.865 Y112.217 E64.10055
G1 X81.312 Y111.804 E64.15589
G1 X82.1 Y110.994 E64.25865
G1 X83.125 Y109.732 E64.40648
G1 X83.511 Y109.205 E64.46588
G1 X83.845 Y108.695 E64.52131
G1 X84.424 Y107.696 E64.6263
G1 X84.93 Y106.663 E64.73089
G1 X85.158 Y106.125 E64.78402
G1 X85.546 Y105.061 E64.887
G1 X85.862 Y103.959 E64.99124
G1 X86.071 Y102.947 E65.0852
G1 X86.213 Y102.064 E65.16652
G1 X86.324 Y100.85 E65.27737
G1 X121.649 Y100.85 E68.48946
G1 X121.649 Y109.837 E69.30664
G1 X121.661 Y110.125 E69.33285
G1 X121.814 Y110.313 E69.35489
G1 X121.961 Y110.35 E69.36867
G1 X142.09 Y110.345 E71.19899
G1 X142.286 Y110.225 E71.21989
G1 X142.349 Y110.038 E71.23783
G1 X142.349 Y100.85 E72.07329
G1 X148.649 Y100.85 E72.64615
G1 X148.649 Y112.65 E73.71912
G1 X116.024 Y112.65 E76.6857
G1 X116.024 Y103.663 E77.50288
G1 X116.011 Y103.375 E77.52909
G1 X115.858 Y103.187 E77.55113
G1 X115.711 Y103.15 E77.56491
G1 X88.643 Y103.15 E80.02619
G1 X88.44 Y103.226 E80.0459
G1 X88.338 Y103.395 E80.06385
G1 X88.069 Y104.612 E80.17718
G1 X87.734 Y105.769 E80.28671
G1 X87.323 Y106.905 E80.39656
G1 X87.092 Y107.459 E80.45114
G1 X86.844 Y108.004 E80.50559
G1 X86.29 Y109.078 E80.61548
G1 X85.67 Y110.111 E80.72503
G1 X84.984 Y111.102 E80.83462
G1 X84.234 Y112.048 E80.94439
G1 X83.842 Y112.498 E80.99866
G1 X83.004 Y113.368 E81.1085
G1 X82.113 Y114.179 E81.21805
