; generated by PrusaSlicer 2.6.0-alpha5+win64 on 2023-06-21 at 19:04:33 UTC

; 

; external perimeters extrusion width = 0.45mm
; perimeters extrusion width = 0.45mm
; infill extrusion width = 0.45mm
; solid infill extrusion width = 0.45mm
; top infill extrusion width = 0.40mm
; first layer extrusion width = 0.70mm

; external perimeters extrusion width = 0.45mm
; perimeters extrusion width = 0.45mm
; infill extrusion width = 0.45mm
; solid infill extrusion width = 0.45mm
; top infill extrusion width = 0.40mm
; first layer extrusion width = 0.70mm

; external perimeters extrusion width = 0.45mm
; perimeters extrusion width = 0.45mm
; infill extrusion width = 0.45mm
; solid infill extrusion width = 0.45mm
; top infill extrusion width = 0.40mm
; first layer extrusion width = 0.70mm

M107
M104 S200 ; set temperature
;TYPE:Custom
G28 ; home all axes
G1 Z5 F5000 ; lift nozzle
M109 S200 ; set temperature and wait for it to be reached
G21 ; set units to millimeters
G90 ; use absolute coordinates
M82 ; use absolute distances for extrusion
G92 E0
; Filament gcode
M107
;LAYER_CHANGE
;Z:0.35
;HEIGHT:0.35
G1 Z.35 F7800
G1 E-2 F2400
G92 E0
G1 X38.459 Y36.996 F7800
G1 E2 F2400
;TYPE:Skirt/Brim
;WIDTH:0.7
G1 F1800
G1 X52.978 Y21.903 E3.90432
G1 X56.165 Y18.876 E4.30399
G1 X58.887 Y16.63 E4.62488
G1 X60.719 Y15.27 E4.83235
G1 X63.402 Y13.474 E5.12593
G1 X67.344 Y11.211 E5.53924
G1 X71.515 Y9.245 E5.95853
G1 X75.8 Y7.636 E6.37473
G1 X77.964 Y6.97 E6.58061
G1 X81.107 Y6.167 E6.87558
G1 X85.58 Y5.347 E7.28909
G1 X90.133 Y4.887 E7.7052
G1 X94.611 Y4.794 E8.11247
G1 X99.114 Y5.059 E8.52263
G1 X102.63 Y5.518 E8.84505
G1 X106.938 Y6.391 E9.24474
G1 X110.338 Y7.332 E9.56552
G1 X114.482 Y8.797 E9.96519
G1 X118.619 Y10.638 E10.37693
G1 X121.748 Y12.307 E10.69939
G1 X125.566 Y14.707 E11.10945
G1 X127.408 Y16.025 E11.3154
G1 X129.953 Y18.04 E11.61057
G1 X133.408 Y21.193 E12.03589
G1 X163.32 Y52.266 E15.95775
G1 X164.89 Y54.953 E16.24073
G1 X182.415 Y113.307 E21.78096
G1 X182.695 Y115.212 E21.95604
G1 X182.695 Y141.212 E24.32021
G1 X182.298 Y143.471 E24.52877
G1 X181.155 Y145.459 E24.73729
G1 X179.762 Y146.714 E24.90778
G1 X102.262 Y198.714 E33.39412
G1 X100.165 Y199.642 E33.60264
G1 X98.57 Y199.837 E33.74875
G1 X95.57 Y199.837 E34.02154
G1 X93.312 Y199.44 E34.23001
G1 X92.037 Y198.816 E34.35909
G1 X36.537 Y163.816 E40.32538
G1 X34.838 Y162.275 E40.53395
G1 X33.529 Y159.258 E40.83299
G1 X23.067 Y93.829 E46.858
G1 X22.988 Y92.997 E46.93399
G1 X21.924 Y60.073 E49.92932
G1 X21.92 Y56.859 E50.22157
G1 X22.317 Y54.6 E50.43013
G1 X23.771 Y52.266 E50.68017
G1 X38.418 Y37.04 E52.60127
G1 E50.60127 F2400
G92 E0
G1 X45.862 Y116.812 F7800
G1 E2 F2400
;TYPE:Perimeter
;WIDTH:0.7
G1 F1800
G1 X48.977 Y116.804 E2.28325
G1 X49.501 Y116.655 E2.33279
G1 X49.97 Y116.305 E2.386
G1 X50.235 Y115.909 E2.42933
G1 X50.318 Y115.686 E2.45097
G1 X50.877 Y113.765 E2.63289
G1 X51.175 Y112.845 E2.72082
G1 X51.822 Y111.033 E2.89577
G1 X52.544 Y109.24 E3.07153
G1 X53.337 Y107.478 E3.24723
G1 X54.203 Y105.741 E3.42372
G1 X54.652 Y104.904 E3.51009
G1 X55.612 Y103.237 E3.68501
G1 X56.652 Y101.588 E3.86228
G1 X57.747 Y99.996 E4.03798
G1 X58.915 Y98.435 E4.21526
G1 X60.128 Y96.942 E4.39018
G1 X60.749 Y96.223 E4.47657
G1 X62.066 Y94.787 E4.65374
G1 X62.729 Y94.106 E4.74016
G1 X64.112 Y92.768 E4.91514
G1 X65.566 Y91.469 E5.09243
G1 X67.064 Y90.236 E5.26885
G1 X67.829 Y89.644 E5.35681
G1 X69.385 Y88.513 E5.53172
G1 X70.992 Y87.439 E5.70747
G1 X72.64 Y86.43 E5.88318
G1 X74.328 Y85.489 E6.05891
G1 X76.052 Y84.615 E6.23467
G1 X77.8 Y83.814 E6.40951
G1 X78.692 Y83.437 E6.49757
G1 X80.501 Y82.737 E6.67395
G1 X82.33 Y82.112 E6.8497
G1 X84.182 Y81.56 E7.02542
G1 X86.062 Y81.081 E7.20183
G1 X87.007 Y80.87 E7.28987
G1 X88.896 Y80.508 E7.46476
G1 X90.807 Y80.219 E7.6405
G1 X92.728 Y80.008 E7.81623
G1 X94.656 Y79.873 E7.99197
G1 X96.595 Y79.815 E8.16836
G1 X97.563 Y79.815 E8.25638
G1 X99.493 Y79.873 E8.43195
G1 X100.442 Y79.93 E8.5184
G1 X102.375 Y80.104 E8.69488
G1 X104.291 Y80.354 E8.87058
G1 X106.196 Y80.68 E9.04632
G1 X108.086 Y81.083 E9.22204
G1 X109.959 Y81.56 E9.39779
G1 X111.811 Y82.112 E9.57351
G1 X113.64 Y82.737 E9.74926
G1 X115.442 Y83.435 E9.92498
G1 X117.215 Y84.204 E10.10071
G1 X118.956 Y85.043 E10.27644
G1 X120.662 Y85.951 E10.45217
G1 X122.33 Y86.927 E10.6279
G1 X123.958 Y87.968 E10.80361
G1 X125.543 Y89.073 E10.9793
G1 X127.083 Y90.241 E11.15505
G1 X128.575 Y91.47 E11.33082
G1 X130.017 Y92.757 E11.50657
G1 X131.406 Y94.1 E11.68225
G1 X132.74 Y95.498 E11.85796
G1 X134.018 Y96.948 E12.03371
G1 X135.236 Y98.448 E12.20941
G1 X136.394 Y99.995 E12.38512
G1 X137.489 Y101.588 E12.56089
G1 X138.52 Y103.223 E12.73665
G1 X139.485 Y104.897 E12.91235
G1 X140.381 Y106.609 E13.08805
G1 X141.209 Y108.355 E13.26376
G1 X141.967 Y110.133 E13.43951
G1 X142.653 Y111.94 E13.61526
G1 X143.266 Y113.773 E13.79101
G1 X143.799 Y115.605 E13.9645
G1 X143.9 Y115.895 E13.99242
G1 X144.149 Y116.281 E14.03419
G1 X144.62 Y116.645 E14.08832
G1 X145.009 Y116.78 E14.12576
G1 X145.323 Y116.812 E14.15446
G1 X148.279 Y116.812 E14.42325
G1 X147.783 Y117.237 E14.48264
G1 X147.533 Y117.737 E14.53347
G1 X147.471 Y118.175 E14.57369
G1 X147.471 Y126.113 E15.29549
G1 X144.117 Y126.113 E15.60047
G1 X144.025 Y124.532 E15.74447
G1 X143.955 Y123.724 E15.81822
G1 X143.726 Y121.765 E15.99756
G1 X143.427 Y119.881 E16.17102
G1 X143.027 Y117.9 E16.35479
G1 X142.801 Y116.94 E16.44447
G1 X142.551 Y115.969 E16.53564
G1 X141.999 Y114.079 E16.71468
G1 X141.369 Y112.213 E16.89376
G1 X140.754 Y110.611 E17.04979
G1 X140.281 Y109.472 E17.16193
G1 X139.872 Y108.557 E17.25306
G1 X139.012 Y106.782 E17.43241
G1 X138.078 Y105.045 E17.61174
G1 X137.081 Y103.362 E17.78961
G1 X136.543 Y102.516 E17.88077
G1 X135.339 Y100.758 E18.07452
G1 X134.851 Y100.088 E18.14989
G1 X133.652 Y98.544 E18.32765
G1 X133.012 Y97.773 E18.41876
G1 X131.717 Y96.306 E18.59669
G1 X130.344 Y94.877 E18.77689
G1 X128.926 Y93.519 E18.95542
G1 X128.18 Y92.849 E19.0466
G1 X126.723 Y91.619 E19.21998
G1 X125.898 Y90.966 E19.31565
G1 X124.769 Y90.127 E19.44355
G1 X123.503 Y89.229 E19.58469
G1 X121.848 Y88.157 E19.76399
G1 X120.206 Y87.187 E19.9374
G1 X118.468 Y86.254 E20.11677
G1 X116.635 Y85.368 E20.30189
G1 X114.838 Y84.592 E20.47987
G1 X113.905 Y84.224 E20.57107
G1 X112.064 Y83.563 E20.74893
G1 X111.11 Y83.254 E20.84011
G1 X109.215 Y82.706 E21.01948
G1 X107.299 Y82.237 E21.19884
G1 X105.382 Y81.852 E21.37663
G1 X104.393 Y81.685 E21.46783
G1 X102.504 Y81.427 E21.64119
G1 X100.474 Y81.236 E21.82659
G1 X98.505 Y81.135 E22.00587
G1 X96.566 Y81.115 E22.18219
G1 X95.563 Y81.137 E22.27341
G1 X94.567 Y81.179 E22.36406
G1 X92.619 Y81.324 E22.54168
G1 X90.651 Y81.552 E22.72183
G1 X89.643 Y81.702 E22.8145
G1 X87.718 Y82.051 E22.99239
G1 X85.81 Y82.478 E23.17018
G1 X84.531 Y82.815 E23.29045
G1 X83.889 Y82.995 E23.35108
G1 X82.007 Y83.586 E23.53045
G1 X80.168 Y84.25 E23.70824
G1 X79.235 Y84.62 E23.7995
G1 X77.426 Y85.405 E23.97881
G1 X75.681 Y86.25 E24.15511
G1 X74.783 Y86.72 E24.24727
G1 X73.068 Y87.688 E24.42634
G1 X71.687 Y88.544 E24.57408
G1 X70.577 Y89.271 E24.69473
G1 X69.754 Y89.844 E24.78592
G1 X68.612 Y90.692 E24.91526
G1 X67.399 Y91.634 E25.05491
G1 X65.894 Y92.908 E25.23421
G1 X64.454 Y94.233 E25.41214
G1 X63.739 Y94.936 E25.50332
G1 X62.375 Y96.36 E25.68262
G1 X61.093 Y97.815 E25.85895
G1 X60.443 Y98.601 E25.95169
G1 X59.275 Y100.108 E26.12506
G1 X58.131 Y101.715 E26.30443
G1 X57.021 Y103.425 E26.48981
G1 X56.042 Y105.081 E26.66473
G1 X55.793 Y105.534 E26.71173
G1 X55.544 Y105.988 E26.75881
G1 X54.65 Y107.746 E26.93815
G1 X53.863 Y109.464 E27.10998
G1 X53.449 Y110.449 E27.20714
G1 X52.744 Y112.291 E27.38648
G1 X52.416 Y113.265 E27.47993
G1 X52.121 Y114.144 E27.56424
G1 X51.831 Y115.106 E27.6556
G1 X51.322 Y117.011 E27.8349
G1 X50.824 Y119.301 E28.048
G1 X50.709 Y119.905 E28.10391
G1 X50.414 Y121.772 E28.27578
G1 X50.177 Y123.813 E28.46261
G1 X50.037 Y125.715 E28.63603
G1 X49.993 Y126.766 E28.73168
G1 X49.974 Y128.738 E28.911
G1 X50.034 Y130.644 E29.0844
G1 X50.18 Y132.643 E29.26665
G1 X50.287 Y133.658 E29.35945
G1 X50.546 Y135.547 E29.53282
G1 X50.893 Y137.488 E29.71211
G1 X51.108 Y138.501 E29.80627
G1 X51.338 Y139.477 E29.89745
G1 X51.831 Y141.319 E30.07084
G1 X52.141 Y142.342 E30.16804
G1 X52.744 Y144.133 E30.33988
G1 X53.449 Y145.975 E30.51922
G1 X53.856 Y146.945 E30.61487
G1 X54.65 Y148.679 E30.78829
G1 X55.575 Y150.495 E30.97361
G1 X56.536 Y152.198 E31.15142
G1 X57.056 Y153.056 E31.24265
G1 X58.122 Y154.696 E31.42051
G1 X59.275 Y156.317 E31.60139
G1 X59.964 Y157.205 E31.70359
G1 X60.485 Y157.874 E31.78069
G1 X61.758 Y159.38 E31.96
G1 X63.031 Y160.764 E32.13099
G1 X63.785 Y161.536 E32.22911
G1 X65.197 Y162.889 E32.40693
G1 X65.943 Y163.56 E32.49817
G1 X67.399 Y164.791 E32.67154
G1 X68.956 Y166.001 E32.85084
G1 X69.807 Y166.619 E32.94647
G1 X71.439 Y167.727 E33.12584
G1 X73.31 Y168.877 E33.32554
G1 X73.971 Y169.258 E33.39491
G1 X75.781 Y170.225 E33.58151
G1 X76.593 Y170.627 E33.6639
G1 X78.387 Y171.447 E33.84326
G1 X80.208 Y172.19 E34.0221
G1 X82.037 Y172.848 E34.19885
G1 X83.008 Y173.163 E34.29167
G1 X84.902 Y173.713 E34.471
G1 X86.754 Y174.168 E34.64441
G1 X88.194 Y174.46 E34.77801
G1 X88.751 Y174.571 E34.82965
G1 X90.683 Y174.877 E35.00752
G1 X91.678 Y175.002 E35.09871
G1 X92.838 Y175.112 E35.20466
G1 X93.625 Y175.186 E35.27654
G1 X94.626 Y175.248 E35.36773
G1 X96.598 Y175.309 E35.54713
G1 X97.739 Y175.298 E35.65089
G1 X98.567 Y175.288 E35.72619
G1 X100.533 Y175.184 E35.90521
G1 X102.494 Y174.999 E36.08431
G1 X104.441 Y174.732 E36.26301
G1 X106.399 Y174.379 E36.44392
G1 X108.323 Y173.948 E36.6232
G1 X110.228 Y173.437 E36.80254
G1 X112.078 Y172.857 E36.97883
G1 X113.042 Y172.521 E37.07166
G1 X114.822 Y171.838 E37.24502
G1 X115.792 Y171.431 E37.34067
G1 X117.585 Y170.609 E37.52002
G1 X119.312 Y169.729 E37.69627
G1 X120.2 Y169.241 E37.7884
G1 X121.895 Y168.239 E37.96744
G1 X123.529 Y167.177 E38.14464
G1 X124.367 Y166.595 E38.23741
G1 X125.898 Y165.459 E38.41076
G1 X126.723 Y164.806 E38.50643
G1 X128.229 Y163.532 E38.6858
G1 X129.669 Y162.208 E38.86367
G1 X130.385 Y161.506 E38.95485
G1 X131.75 Y160.082 E39.13421
G1 X133.053 Y158.604 E39.31337
G1 X134.292 Y157.073 E39.49246
G1 X135.466 Y155.492 E39.67152
G1 X136.56 Y153.882 E39.84852
G1 X137.107 Y153.021 E39.94127
G1 X138.078 Y151.38 E40.11465
G1 X138.578 Y150.473 E40.20882
G1 X139.042 Y149.584 E40.3
G1 X139.873 Y147.868 E40.47337
G1 X140.658 Y146.058 E40.65276
G1 X141.367 Y144.218 E40.83206
G1 X141.993 Y142.365 E41.00991
G1 X142.566 Y140.399 E41.19612
G1 X143.038 Y138.477 E41.37608
G1 X143.427 Y136.543 E41.55546
G1 X143.735 Y134.595 E41.73479
G1 X143.96 Y132.652 E41.91265
G1 X144.043 Y131.669 E42.00235
G1 X144.117 Y130.312 E42.12592
G1 X147.471 Y130.312 E42.4309
G1 X147.471 Y138.25 E43.1527
G1 X147.533 Y138.687 E43.19283
G1 X147.783 Y139.187 E43.24366
G1 X148.279 Y139.613 E43.30311
G1 X146.108 Y139.613 E43.50052
G1 X145.009 Y139.644 E43.60049
G1 X144.605 Y139.787 E43.63946
G1 X144.137 Y140.157 E43.69371
G1 X143.824 Y140.732 E43.75324
G1 X143.266 Y142.652 E43.93505
G1 X142.653 Y144.485 E44.1108
G1 X141.967 Y146.291 E44.28647
G1 X141.21 Y148.069 E44.46219
G1 X140.382 Y149.815 E44.6379
G1 X139.485 Y151.527 E44.81364
G1 X138.52 Y153.202 E44.98942
G1 X137.49 Y154.836 E45.16505
G1 X136.395 Y156.429 E45.34082
G1 X135.237 Y157.976 E45.51653
G1 X134.018 Y159.476 E45.69228
G1 X132.741 Y160.926 E45.86797
G1 X131.406 Y162.324 E46.04374
G1 X130.017 Y163.667 E46.21942
G1 X128.576 Y164.954 E46.3951
G1 X127.084 Y166.183 E46.57087
G1 X125.544 Y167.35 E46.74657
G1 X123.959 Y168.456 E46.92231
G1 X122.331 Y169.497 E47.09802
G1 X120.663 Y170.473 E47.27375
G1 X118.957 Y171.381 E47.44948
G1 X117.216 Y172.22 E47.62521
G1 X115.444 Y172.989 E47.80086
G1 X113.642 Y173.687 E47.97658
G1 X111.813 Y174.312 E48.15233
G1 X109.961 Y174.864 E48.32805
G1 X108.088 Y175.341 E48.5038
G1 X106.198 Y175.744 E48.67952
G1 X104.293 Y176.07 E48.85526
G1 X102.377 Y176.32 E49.03096
G1 X100.452 Y176.494 E49.20671
G1 X98.455 Y176.594 E49.38852
G1 X97.994 Y176.688 E49.4313
G1 X97.6 Y176.901 E49.47203
G1 X97.236 Y177.283 E49.52001
G1 X97.195 Y177.501 E49.54018
;WIDTH:0.650111
G1 X97.153 Y177.718 E49.55867
;WIDTH:0.600222
G1 X97.112 Y177.936 E49.57562
;WIDTH:0.550333
G1 X97.07 Y178.154 E49.59097
G1 X97.029 Y177.936 E49.60631
;WIDTH:0.600222
G1 X96.988 Y177.718 E49.62326
;WIDTH:0.650111
G1 X96.946 Y177.501 E49.64175
;WIDTH:0.7
G1 X96.905 Y177.283 E49.66192
G1 X96.541 Y176.901 E49.7099
G1 X96.221 Y176.717 E49.74346
G1 X95.67 Y176.593 E49.79482
G1 X94.662 Y176.552 E49.88655
G1 X92.721 Y176.417 E50.06347
G1 X91.776 Y176.322 E50.14983
G1 X89.855 Y176.071 E50.32599
G1 X87.944 Y175.744 E50.50228
G1 X87.014 Y175.556 E50.58856
G1 X85.119 Y175.114 E50.7655
G1 X83.258 Y174.599 E50.94108
G1 X81.428 Y174.015 E51.11575
G1 X79.607 Y173.352 E51.29197
G1 X78.725 Y173.001 E51.37829
G1 X76.947 Y172.23 E51.55451
G1 X75.201 Y171.39 E51.73069
G1 X74.358 Y170.952 E51.81707
G1 X72.658 Y170.005 E51.99402
G1 X71.837 Y169.514 E52.08101
G1 X71.025 Y169.007 E52.16806
G1 X69.406 Y167.927 E52.34502
G1 X68.633 Y167.377 E52.43128
G1 X67.088 Y166.207 E52.6075
G1 X65.591 Y164.976 E52.78373
G1 X64.863 Y164.34 E52.87163
G1 X63.455 Y163.034 E53.04625
G1 X62.082 Y161.653 E53.22332
G1 X60.782 Y160.239 E53.39798
G1 X60.161 Y159.521 E53.4843
G1 X58.926 Y158.005 E53.6621
G1 X58.233 Y157.111 E53.76495
G1 X57.672 Y156.725 E53.82687
G1 X57.089 Y156.613 E53.88085
G1 X46.67 Y156.613 E54.82824
G1 X46.67 Y118.175 E58.32339
G1 X46.608 Y117.737 E58.36361
G1 X46.358 Y117.237 E58.41444
G1 X45.907 Y116.851 E58.46842
G1 E56.46842 F2400
G92 E0
G1 X170.67 Y130.312 F7800
G1 E2 F2400
G1 F1800
G1 X174.471 Y130.312 E2.34562
G1 X174.471 Y139.613 E3.19136
G1 X169.862 Y139.613 E3.61045
G1 X170.358 Y139.187 E3.6699
G1 X170.608 Y138.687 E3.72073
G1 X170.67 Y138.25 E3.76086
G1 X170.67 Y130.372 E4.4772
G1 E2.4772 F2400
G92 E0
G1 X169.862 Y116.812 F7800
G1 E2 F2400
G1 F1800
G1 X174.471 Y116.812 E2.41909
G1 X174.471 Y126.113 E3.26483
G1 X170.67 Y126.113 E3.61045
G1 X170.67 Y118.175 E4.33225
G1 X170.608 Y117.737 E4.37247
G1 X170.358 Y117.237 E4.4233
G1 X169.907 Y116.851 E4.47728
G1 E2.47728 F2400
G92 E0
G1 X42.739 Y116.734 F7800
G1 E2 F2400
;WIDTH:0.53688
G1 F1800
G1 X42.445 Y116.816 E2.02051
;WIDTH:0.538693
G1 X41.985 Y117.127 E2.05797
G1 X41.673 Y117.586 E2.09541
G1 X41.57 Y118.175 E2.13575
G1 X41.59 Y116.731 E2.23317
G1 X42.759 Y116.724 E2.31203
G1 X42.916 Y117.262 F7800
;WIDTH:0.7
G1 F1800
G1 X42.661 Y117.315 E2.33571
G1 X42.37 Y117.512 E2.36766
G1 X42.173 Y117.802 E2.39954
G1 X42.096 Y118.175 E2.43417
G1 X42.096 Y157.237 E5.98606
G1 X41.045 Y157.237 E6.08163
G1 X41.045 Y116.187 E9.81429
G1 X48.818 Y116.187 E10.52109
G1 X49.228 Y116.093 E10.55934
G1 X49.535 Y115.854 E10.59472
G1 X49.718 Y115.512 E10.62999
G1 X50.279 Y113.582 E10.81275
G1 X50.583 Y112.643 E10.9025
G1 X51.238 Y110.811 E11.07941
G1 X51.969 Y108.995 E11.25741
G1 X52.772 Y107.21 E11.43539
G1 X53.648 Y105.454 E11.61383
G1 X54.106 Y104.6 E11.70195
G1 X55.077 Y102.915 E11.87879
G1 X56.13 Y101.244 E12.05839
G1 X57.239 Y99.631 E12.23638
G1 X58.422 Y98.05 E12.41593
G1 X59.649 Y96.541 E12.59278
G1 X60.282 Y95.807 E12.68091
G1 X61.612 Y94.357 E12.85982
G1 X62.288 Y93.663 E12.94791
G1 X63.686 Y92.311 E13.12475
G1 X65.159 Y90.995 E13.30436
G1 X66.674 Y89.748 E13.48278
G1 X67.454 Y89.144 E13.57248
G1 X69.027 Y88 E13.74934
G1 X70.655 Y86.913 E13.92734
G1 X72.325 Y85.891 E14.10537
G1 X74.034 Y84.937 E14.28334
G1 X75.78 Y84.052 E14.46133
G1 X77.549 Y83.242 E14.63824
G1 X78.457 Y82.858 E14.72788
G1 X80.287 Y82.15 E14.9063
G1 X82.14 Y81.516 E15.08438
G1 X84.016 Y80.958 E15.26235
G1 X85.917 Y80.473 E15.44074
G1 X86.88 Y80.258 E15.53046
G1 X88.79 Y79.892 E15.7073
G1 X90.726 Y79.6 E15.88533
G1 X92.672 Y79.385 E16.06336
G1 X94.624 Y79.248 E16.24129
G1 X96.586 Y79.19 E16.41977
G1 X97.572 Y79.19 E16.50943
G1 X99.521 Y79.249 E16.68673
G1 X100.489 Y79.307 E16.77491
G1 X102.443 Y79.483 E16.95331
G1 X104.384 Y79.736 E17.1313
G1 X106.314 Y80.067 E17.30936
G1 X108.228 Y80.474 E17.48729
G1 X110.125 Y80.958 E17.66531
G1 X112.001 Y81.516 E17.84328
G1 X113.854 Y82.15 E18.02136
