; generated by PrusaSlicer 2.6.0-alpha5+win64 on 2023-06-07 at 12:18:47 UTC


;
;
; 

; external perimeters extrusion width = 0.60mm
; perimeters extrusion width = 0.50mm
; infill extrusion width = 0.50mm
; solid infill extrusion width = 0.50mm
; top infill extrusion width = 0.45mm
; first layer extrusion width = 0.42mm

M73 P0 R23
M73 Q0 S23
M201 X1000 Y1000 Z200 E5000 ; sets maximum accelerations, mm/sec^2
M203 X200 Y200 Z12 E120 ; sets maximum feedrates, mm / sec
M204 P1250 R1250 T1250 ; sets acceleration (P, T) and retract acceleration (R), mm/sec^2
M205 X8.00 Y8.00 Z0.40 E4.50 ; sets the jerk limits, mm/sec
M205 S0 T0 ; sets the minimum extruding and travel feed rate, mm/sec
M107
;TYPE:Custom
M862.3 P "MK3S" ; printer model check
M862.1 P0.4 ; nozzle diameter check
M115 U3.12.2 ; tell printer latest fw version
G90 ; use absolute coordinates
M83 ; extruder relative mode
M104 S215 ; set extruder temp
M140 S60 ; set bed temp
M190 S60 ; wait for bed temp
M109 S215 ; wait for extruder temp
G28 W ; home all without mesh bed level
G80 ; mesh bed leveling

G1 Z0.2 F720
G1 Y-3 F1000 ; go outside print area
G92 E0
G1 X60 E9 F1000 ; intro line
G1 X100 E12.5 F1000 ; intro line

G92 E0
M221 S95

; Don't change E values below. Excessive value can damage the printer.

M907 E538 ; set extruder motor current
G21 ; set units to millimeters
G90 ; use absolute coordinates
M83 ; use relative distances for extrusion
M900 K0.05 ; Filament gcode LA 1.5
M900 K30 ; Filament gcode LA 1.0
M107
;LAYER_CHANGE
;Z:0.2
;HEIGHT:0.2
;BEFORE_LAYER_CHANGE
G92 E0.0
;0.2


G1 E-.8 F2100
G1 Z.4 F720
;AFTER_LAYER_CHANGE
;0.2
G1 X113.867 Y86.2 F10800
G1 Z.2 F720
G1 E.8 F2100
M204 S800
;TYPE:Skirt/Brim
;WIDTH:0.42
G1 F1200
G1 X114.796 Y85.2 E.0428
G1 X116 Y84.873 E.03912
G1 X150 Y84.873 E1.06605
G1 X151.307 Y85.265 E.04278
G1 X152.183 Y86.31 E.04275
G1 X152.377 Y87.25 E.03009
G1 X152.377 Y122.75 E1.11308
G1 X151.985 Y124.057 E.04278
G1 X150.94 Y124.933 E.04275
G1 X150 Y125.127 E.03009
G1 X100 Y125.127 E1.56771
G1 X98.693 Y124.735 E.04278
G1 X97.817 Y123.69 E.04275
G1 X97.623 Y122.75 E.03009
G1 X97.623 Y119.75 E.09406
G1 X97.867 Y118.7 E.0338
M73 Q1 S23
G1 X113.841 Y86.254 E1.13393
M204 S1000
; printing object BasePlateHolder-Body id:0 copy 0
;WIPE_START
G1 F8640
M73 P1 R23
G1 X114.796 Y85.2 E-.32841
G1 X116 Y84.873 E-.28808
G1 X116.795 Y84.873 E-.18351
;WIPE_END
G1 Z.6 F720
G1 X123.318 Y116.495 F10800
G1 Z.2 F720
G1 E.8 F2100
M204 S800
;TYPE:Perimeter
;WIDTH:0.419999
G1 F1200
G1 X123.221 Y116.463 E.0032
G1 X109.787 Y116.463 E.42121
G1 X109.787 Y109.037 E.23284
G1 X116.221 Y109.037 E.20173
G1 X116.311 Y109.03 E.00283
G1 X116.566 Y108.92 E.00871
G1 X116.722 Y108.734 E.00761
G1 X116.787 Y108.471 E.00849
G1 X116.787 Y88.037 E.64069
G1 X149.213 Y88.037 E1.01669
G1 X149.213 Y102.963 E.46799
G1 X143.787 Y102.963 E.17013
G1 X143.787 Y94.029 E.28012
G1 X143.707 Y93.738 E.00946
G1 X143.512 Y93.543 E.00865
G1 X143.221 Y93.463 E.00946
G1 X122.779 Y93.463 E.64094
G1 X122.488 Y93.543 E.00946
M73 P1 R22
G1 X122.293 Y93.738 E.00865
G1 X122.213 Y94.029 E.00946
G1 X122.213 Y114.471 E.64094
G1 X122.256 Y114.689 E.00697
G1 X122.439 Y114.924 E.00934
G1 X122.779 Y115.037 E.01123
G1 X143.319 Y115.029 E.64402
G1 X143.594 Y114.897 E.00956
G1 X143.732 Y114.716 E.00714
G1 X143.787 Y114.471 E.00787
G1 X143.787 Y105.537 E.28012
G1 X149.213 Y105.537 E.17013
G1 X149.213 Y121.963 E.51502
G1 X100.787 Y121.963 E1.51836
G1 X100.787 Y120.537 E.04471
M73 P2 R22
M73 Q2 S22
G1 X123.221 Y120.537 E.7034
G1 X123.561 Y120.424 E.01123
G1 X123.744 Y120.189 E.00934
G1 X123.787 Y119.971 E.00697
G1 X123.787 Y117.029 E.09224
G1 X123.744 Y116.811 E.00697
G1 X123.561 Y116.576 E.00934
G1 X123.375 Y116.514 E.00615
M204 S1000
G1 X123.221 Y116.84 F10800
M204 S800
;TYPE:External perimeter
G1 F1200
G1 X109.41 Y116.84 E.43303
G1 X109.41 Y108.66 E.25648
G1 X116.221 Y108.66 E.21355
G1 X116.336 Y108.621 E.00381
G1 X116.41 Y108.471 E.00524
G1 X116.41 Y87.66 E.65251
G1 X149.59 Y87.66 E1.04033
G1 X149.59 Y103.34 E.49163
G1 X143.41 Y103.34 E.19377
G1 X143.41 Y94.029 E.29194
G1 X143.355 Y93.895 E.00454
G1 X143.221 Y93.84 E.00454
G1 X122.779 Y93.84 E.64094
G1 X122.645 Y93.895 E.00454
G1 X122.59 Y94.029 E.00454
G1 X122.59 Y114.471 E.64094
G1 X122.665 Y114.622 E.00529
G1 X122.779 Y114.66 E.00377
G1 X143.221 Y114.66 E.64094
G1 X143.346 Y114.613 E.00419
G1 X143.41 Y114.471 E.00488
G1 X143.41 Y105.16 E.29194
G1 X149.59 Y105.16 E.19377
G1 X149.59 Y122.34 E.53867
G1 X100.41 Y122.34 E1.542
G1 X100.41 Y120.16 E.06835
M73 P3 R22
M73 Q3 S22
G1 X123.221 Y120.16 E.71522
G1 X123.335 Y120.122 E.00377
G1 X123.41 Y119.971 E.00529
G1 X123.41 Y117.029 E.09224
G1 X123.335 Y116.878 E.00529
G1 X123.278 Y116.859 E.00188
M204 S1000
G1 X123.118 Y116.454 F10800
;WIPE_START
G1 F8640
G1 X119.813 Y116.854 E-.8
;WIPE_END
G1 Z.6 F720
G1 X149.043 Y88.971 F10800
G1 Z.2 F720
G1 E.8 F2100
M204 S800
;TYPE:Solid infill
;WIDTH:0.420729
G1 F1200
G1 X148.449 Y88.376 E.02641
G1 X147.915 Y88.376 E.01678
G1 X148.874 Y89.335 E.04261
G1 X148.874 Y89.87 E.01681
G1 X147.381 Y88.376 E.06635
G1 X146.846 Y88.376 E.01681
G1 X148.874 Y90.404 E.0901
G1 X148.874 Y90.938 E.01678
G1 X146.312 Y88.376 E.11382
G1 X145.778 Y88.376 E.01678
G1 X148.874 Y91.472 E.13755
G1 X148.874 Y92.007 E.01681
G1 X145.243 Y88.376 E.16132
G1 X144.709 Y88.376 E.01678
G1 X148.874 Y92.541 E.18504
G1 X148.874 Y93.075 E.01678
G1 X144.175 Y88.376 E.20876
G1 X143.64 Y88.376 E.01681
G1 X148.874 Y93.61 E.23253
G1 X148.874 Y94.144 E.01678
G1 X143.106 Y88.376 E.25626
G1 X142.572 Y88.376 E.01678
G1 X148.874 Y94.678 E.27998
G1 X148.874 Y95.213 E.01681
G1 X142.037 Y88.376 E.30375
G1 X141.503 Y88.376 E.01678
G1 X148.874 Y95.747 E.32747
G1 X148.874 Y96.281 E.01678
G1 X140.969 Y88.376 E.3512
G1 X140.435 Y88.376 E.01678
G1 X148.874 Y96.815 E.37492
G1 X148.874 Y97.35 E.01681
G1 X139.9 Y88.376 E.39869
G1 X139.366 Y88.376 E.01678
G1 X148.874 Y97.884 E.42242
G1 X148.874 Y98.418 E.01678
G1 X138.832 Y88.376 E.44614
G1 X138.297 Y88.376 E.01681
G1 X143.044 Y93.124 E.21092
G1 X142.51 Y93.124 E.01678
G1 X137.763 Y88.376 E.21092
G1 X137.229 Y88.376 E.01678
G1 X141.976 Y93.124 E.21092
G1 X141.442 Y93.124 E.01678
G1 X136.694 Y88.376 E.21094
G1 X136.16 Y88.376 E.01678
G1 X140.907 Y93.124 E.21092
G1 X140.373 Y93.124 E.01678
G1 X135.626 Y88.376 E.21092
G1 X135.092 Y88.376 E.01678
M73 Q4 S22
G1 X139.839 Y93.124 E.21092
G1 X139.304 Y93.124 E.01681
M73 P4 R22
G1 X134.557 Y88.376 E.21092
G1 X134.023 Y88.376 E.01678
G1 X138.77 Y93.124 E.21092
G1 X138.236 Y93.124 E.01678
G1 X133.489 Y88.376 E.21092
G1 X132.954 Y88.376 E.01681
G1 X137.701 Y93.124 E.21092
G1 X137.167 Y93.124 E.01678
G1 X132.42 Y88.376 E.21092
G1 X131.886 Y88.376 E.01678
G1 X136.633 Y93.124 E.21092
G1 X136.099 Y93.124 E.01678
G1 X131.351 Y88.376 E.21094
G1 X130.817 Y88.376 E.01678
G1 X135.564 Y93.124 E.21092
G1 X135.03 Y93.124 E.01678
G1 X130.283 Y88.376 E.21092
G1 X129.749 Y88.376 E.01678
G1 X134.496 Y93.124 E.21092
G1 X133.961 Y93.124 E.01681
G1 X129.214 Y88.376 E.21092
G1 X128.68 Y88.376 E.01678
G1 X133.427 Y93.124 E.21092
G1 X132.893 Y93.124 E.01678
G1 X128.146 Y88.376 E.21092
G1 X127.611 Y88.376 E.01681
G1 X132.358 Y93.124 E.21092
G1 X131.824 Y93.124 E.01678
G1 X127.077 Y88.376 E.21092
G1 X126.543 Y88.376 E.01678
G1 X131.29 Y93.124 E.21092
G1 X130.755 Y93.124 E.01681
G1 X126.008 Y88.376 E.21092
G1 X125.474 Y88.376 E.01678
G1 X130.221 Y93.124 E.21092
G1 X129.687 Y93.124 E.01678
G1 X124.94 Y88.376 E.21092
G1 X124.405 Y88.376 E.01681
G1 X129.153 Y93.124 E.21094
G1 X128.618 Y93.124 E.01681
G1 X123.871 Y88.376 E.21092
G1 X123.337 Y88.376 E.01678
G1 X128.084 Y93.124 E.21092
G1 X127.55 Y93.124 E.01678
G1 X122.803 Y88.376 E.21092
G1 X122.268 Y88.376 E.01681
G1 X127.015 Y93.124 E.21092
G1 X126.481 Y93.124 E.01678
G1 X121.734 Y88.376 E.21092
G1 X121.2 Y88.376 E.01678
G1 X125.947 Y93.124 E.21092
G1 X125.412 Y93.124 E.01681
G1 X120.665 Y88.376 E.21092
G1 X120.131 Y88.376 E.01678
G1 X124.878 Y93.124 E.21092
G1 X124.344 Y93.124 E.01678
G1 X119.597 Y88.376 E.21092
G1 X119.062 Y88.376 E.01681
G1 X123.81 Y93.124 E.21094
G1 X123.275 Y93.124 E.01681
G1 X118.528 Y88.376 E.21092
G1 X117.994 Y88.376 E.01678
G1 X122.744 Y93.127 E.21105
G1 X122.533 Y93.156 E.00669
G1 X122.328 Y93.245 E.00702
G1 X117.46 Y88.376 E.2163
G1 X117.126 Y88.376 E.01049
G1 X117.126 Y88.578 E.00635
G1 X122.05 Y93.501 E.21874
G1 X122 Y93.564 E.00253
G1 X121.906 Y93.783 E.00749
G1 X121.893 Y93.878 E.00301
G1 X117.126 Y89.112 E.21176
G1 X117.126 Y89.646 E.01678
G1 X121.874 Y94.393 E.21092
G1 X121.874 Y94.928 E.01681
G1 X117.126 Y90.181 E.21092
G1 X117.126 Y90.715 E.01678
M73 P5 R22
M73 Q5 S22
G1 X121.874 Y95.462 E.21092
G1 X121.874 Y95.996 E.01678
G1 X117.126 Y91.249 E.21092
G1 X117.126 Y91.783 E.01678
G1 X121.874 Y96.531 E.21094
G1 X121.874 Y97.065 E.01678
G1 X117.126 Y92.318 E.21092
G1 X117.126 Y92.852 E.01678
G1 X121.874 Y97.599 E.21092
G1 X121.874 Y98.133 E.01678
G1 X117.126 Y93.386 E.21092
G1 X117.126 Y93.921 E.01681
G1 X121.874 Y98.668 E.21092
G1 X121.874 Y99.202 E.01678
G1 X117.126 Y94.455 E.21092
G1 X117.126 Y94.989 E.01678
G1 X121.874 Y99.736 E.21092
G1 X121.874 Y100.271 E.01681
G1 X117.126 Y95.524 E.21092
G1 X117.126 Y96.058 E.01678
G1 X121.874 Y100.805 E.21092
G1 X121.874 Y101.339 E.01678
G1 X117.126 Y96.592 E.21092
G1 X117.126 Y97.126 E.01678
G1 X121.874 Y101.874 E.21094
G1 X121.874 Y102.408 E.01678
G1 X117.126 Y97.661 E.21092
G1 X117.126 Y98.195 E.01678
G1 X121.874 Y102.942 E.21092
G1 X121.874 Y103.476 E.01678
G1 X117.126 Y98.729 E.21092
G1 X117.126 Y99.264 E.01681
G1 X121.874 Y104.011 E.21092
G1 X121.874 Y104.545 E.01678
G1 X117.126 Y99.798 E.21092
G1 X117.126 Y100.332 E.01678
G1 X121.874 Y105.079 E.21092
G1 X121.874 Y105.614 E.01681
G1 X117.126 Y100.867 E.21092
G1 X117.126 Y101.401 E.01678
G1 X121.874 Y106.148 E.21092
G1 X121.874 Y106.682 E.01678
G1 X117.126 Y101.935 E.21092
G1 X117.126 Y102.47 E.01681
G1 X121.874 Y107.217 E.21092
G1 X121.874 Y107.751 E.01678
G1 X117.126 Y103.004 E.21092
G1 X117.126 Y103.538 E.01678
G1 X121.874 Y108.285 E.21092
G1 X121.874 Y108.82 E.01681
G1 X117.126 Y104.072 E.21094
G1 X117.126 Y104.607 E.01681
G1 X121.874 Y109.354 E.21092
G1 X121.874 Y109.888 E.01678
G1 X117.126 Y105.141 E.21092
G1 X117.126 Y105.675 E.01678
G1 X121.874 Y110.422 E.21092
G1 X121.874 Y110.957 E.01681
G1 X117.126 Y106.21 E.21092
G1 X117.126 Y106.744 E.01678
G1 X121.874 Y111.491 E.21092
G1 X121.874 Y112.025 E.01678
G1 X117.126 Y107.278 E.21092
G1 X117.126 Y107.813 E.01681
G1 X121.874 Y112.56 E.21092
M73 P5 R21
G1 X121.874 Y113.094 E.01678
G1 X117.126 Y108.347 E.21092
G1 X117.101 Y108.691 E.01084
G1 X117.055 Y108.81 E.00401
G1 X121.874 Y113.628 E.21407
G1 X121.874 Y114.163 E.01681
G1 X116.719 Y109.008 E.22902
M204 S1000
;WIPE_START
G1 F8640
G1 X119.169 Y111.458 E-.8
;WIPE_END
G1 Z.6 F720
G1 X143.957 Y94.036 F10800
G1 Z.2 F720
M73 P6 R21
M73 Q6 S22
G1 E.8 F2100
M204 S800
G1 F1200
G1 X148.874 Y98.953 E.21845
G1 X148.874 Y99.487 E.01678
G1 X144.126 Y94.74 E.21092
G1 X144.126 Y95.274 E.01678
G1 X148.874 Y100.021 E.21092
G1 X148.874 Y100.556 E.01681
G1 X144.126 Y95.808 E.21094
G1 X144.126 Y96.343 E.01681
G1 X148.874 Y101.09 E.21092
G1 X148.874 Y101.624 E.01678
G1 X144.126 Y96.877 E.21092
G1 X144.126 Y97.411 E.01678
G1 X148.874 Y102.158 E.21092
G1 X148.874 Y102.624 E.01464
G1 X148.804 Y102.624 E.0022
G1 X144.126 Y97.946 E.20783
G1 X144.126 Y98.48 E.01678
G1 X148.27 Y102.624 E.18411
G1 X147.736 Y102.624 E.01678
G1 X144.126 Y99.014 E.16038
G1 X144.126 Y99.549 E.01681
M73 Q6 S21
G1 X147.201 Y102.624 E.13661
G1 X146.667 Y102.624 E.01678
G1 X144.126 Y100.083 E.11289
G1 X144.126 Y100.617 E.01678
G1 X146.133 Y102.624 E.08917
G1 X145.599 Y102.624 E.01678
G1 X144.126 Y101.151 E.06544
G1 X144.126 Y101.686 E.01681
G1 X145.064 Y102.624 E.04167
G1 X144.53 Y102.624 E.01678
G1 X143.957 Y102.05 E.02548
M204 S1000
;WIPE_START
G1 F8640
G1 X144.53 Y102.624 E-.18727
G1 X145.064 Y102.624 E-.1233
G1 X144.126 Y101.686 E-.3063
G1 X144.126 Y101.151 E-.12353
G1 X144.309 Y101.334 E-.0596
;WIPE_END
G1 Z.6 F720
G1 X148.682 Y105.707 F10800
G1 Z.2 F720
G1 E.8 F2100
M204 S800
G1 F1200
G1 X148.874 Y105.899 E.00853
G1 X148.874 Y106.433 E.01678
G1 X148.317 Y105.876 E.02475
G1 X147.783 Y105.876 E.01678
G1 X148.874 Y106.967 E.04847
G1 X148.874 Y107.501 E.01678
G1 X147.249 Y105.876 E.07219
G1 X146.714 Y105.876 E.01681
G1 X148.874 Y108.036 E.09596
G1 X148.874 Y108.57 E.01678
G1 X146.18 Y105.876 E.11969
G1 X145.646 Y105.876 E.01678
G1 X148.874 Y109.104 E.14341
G1 X148.874 Y109.639 E.01681
G1 X145.111 Y105.876 E.16718
G1 X144.577 Y105.876 E.01678
G1 X148.874 Y110.173 E.1909
G1 X148.874 Y110.707 E.01678
G1 X144.126 Y105.96 E.21092
G1 X144.126 Y106.495 E.01681
G1 X148.874 Y111.242 E.21092
G1 X148.874 Y111.776 E.01678
G1 X144.126 Y107.029 E.21092
G1 X144.126 Y107.563 E.01678
G1 X148.874 Y112.31 E.21092
G1 X148.874 Y112.845 E.01681
G1 X144.126 Y108.097 E.21094
G1 X144.126 Y108.632 E.01681
G1 X148.874 Y113.379 E.21092
G1 X148.874 Y113.913 E.01678
G1 X144.126 Y109.166 E.21092
G1 X144.126 Y109.7 E.01678
G1 X148.874 Y114.447 E.21092
G1 X148.874 Y114.982 E.01681
G1 X144.126 Y110.235 E.21092
G1 X144.126 Y110.769 E.01678
G1 X148.874 Y115.516 E.21092
G1 X148.874 Y116.05 E.01678
G1 X144.126 Y111.303 E.21092
G1 X144.126 Y111.838 E.01681
G1 X148.874 Y116.585 E.21092
G1 X148.874 Y117.119 E.01678
G1 X144.126 Y112.372 E.21092
G1 X144.126 Y112.906 E.01678
G1 X148.874 Y117.653 E.21092
G1 X148.874 Y118.188 E.01681
G1 X144.126 Y113.44 E.21094
G1 X144.126 Y113.975 E.01681
G1 X148.874 Y118.722 E.21092
G1 X148.874 Y119.256 E.01678
G1 X144.123 Y114.506 E.21105
G1 X144.104 Y114.674 E.00531
G1 X144.003 Y114.92 E.00835
G1 X148.874 Y119.79 E.21638
G1 X148.874 Y120.325 E.01681
G1 X143.747 Y115.198 E.22778
G1 X143.544 Y115.32 E.00744
M73 P7 R21
M73 Q7 S21
G1 X143.367 Y115.352 E.00565
G1 X148.874 Y120.859 E.24466
G1 X148.874 Y121.393 E.01678
G1 X142.857 Y115.376 E.26732
G1 X142.322 Y115.376 E.01681
G1 X148.569 Y121.624 E.27756
G1 X148.035 Y121.624 E.01678
G1 X141.788 Y115.376 E.27756
G1 X141.254 Y115.376 E.01678
G1 X147.501 Y121.624 E.27756
G1 X146.967 Y121.624 E.01678
G1 X140.719 Y115.376 E.27758
G1 X140.185 Y115.376 E.01678
G1 X146.432 Y121.624 E.27756
G1 X145.898 Y121.624 E.01678
G1 X139.651 Y115.376 E.27756
G1 X139.117 Y115.376 E.01678
G1 X145.364 Y121.624 E.27756
G1 X144.829 Y121.624 E.01681
G1 X138.582 Y115.376 E.27756
G1 X138.048 Y115.376 E.01678
G1 X144.295 Y121.624 E.27756
G1 X143.761 Y121.624 E.01678
G1 X137.514 Y115.376 E.27756
G1 X136.979 Y115.376 E.01681
G1 X143.226 Y121.624 E.27756
G1 X142.692 Y121.624 E.01678
G1 X136.445 Y115.376 E.27756
G1 X135.911 Y115.376 E.01678
G1 X142.158 Y121.624 E.27756
G1 X141.624 Y121.624 E.01678
G1 X135.376 Y115.376 E.27758
G1 X134.842 Y115.376 E.01678
G1 X141.089 Y121.624 E.27756
G1 X140.555 Y121.624 E.01678
G1 X134.308 Y115.376 E.27756
G1 X133.774 Y115.376 E.01678
G1 X140.021 Y121.624 E.27756
G1 X139.486 Y121.624 E.01681
G1 X133.239 Y115.376 E.27756
G1 X132.705 Y115.376 E.01678
G1 X138.952 Y121.624 E.27756
G1 X138.418 Y121.624 E.01678
G1 X132.171 Y115.376 E.27756
G1 X131.636 Y115.376 E.01681
G1 X137.883 Y121.624 E.27756
G1 X137.349 Y121.624 E.01678
G1 X131.102 Y115.376 E.27756
G1 X130.568 Y115.376 E.01678
G1 X136.815 Y121.624 E.27756
G1 X136.28 Y121.624 E.01681
G1 X130.033 Y115.376 E.27756
G1 X129.499 Y115.376 E.01678
G1 X135.746 Y121.624 E.27756
G1 X135.212 Y121.624 E.01678
G1 X128.965 Y115.376 E.27756
G1 X128.43 Y115.376 E.01681
G1 X134.678 Y121.624 E.27758
G1 X134.143 Y121.624 E.01681
M73 P8 R21
M73 Q8 S21
G1 X127.896 Y115.376 E.27756
G1 X127.362 Y115.376 E.01678
G1 X133.609 Y121.624 E.27756
G1 X133.075 Y121.624 E.01678
G1 X126.828 Y115.376 E.27756
G1 X126.293 Y115.376 E.01681
G1 X132.54 Y121.624 E.27756
G1 X132.006 Y121.624 E.01678
G1 X125.759 Y115.376 E.27756
G1 X125.225 Y115.376 E.01678
G1 X131.472 Y121.624 E.27756
G1 X130.937 Y121.624 E.01681
G1 X124.69 Y115.376 E.27756
G1 X124.156 Y115.376 E.01678
G1 X130.403 Y121.624 E.27756
G1 X129.869 Y121.624 E.01678
G1 X123.622 Y115.376 E.27756
G1 X123.087 Y115.376 E.01681
G1 X129.335 Y121.624 E.27758
G1 X128.8 Y121.624 E.01681
G1 X124.11 Y116.934 E.20836
