; generated by PrusaSlicer 2.6.0-alpha5+win64 on 2023-06-08 at 09:56:12 UTC


;
;
; 

; external perimeters extrusion width = 0.60mm
; perimeters extrusion width = 0.50mm
; infill extrusion width = 0.50mm
; solid infill extrusion width = 0.50mm
; top infill extrusion width = 0.45mm
; first layer extrusion width = 0.42mm

M73 P0 R100
M73 Q0 S100
M201 X1000 Y1000 Z200 E5000 ; sets maximum accelerations, mm/sec^2
M203 X200 Y200 Z12 E120 ; sets maximum feedrates, mm / sec
M204 P1250 R1250 T1250 ; sets acceleration (P, T) and retract acceleration (R), mm/sec^2
M205 X8.00 Y8.00 Z0.40 E4.50 ; sets the jerk limits, mm/sec
M205 S0 T0 ; sets the minimum extruding and travel feed rate, mm/sec
M107
;TYPE:Custom
M862.3 P "MK3S" ; printer model check
M862.1 P0.4 ; nozzle diameter check
M115 U3.12.2 ; tell printer latest fw version
G90 ; use absolute coordinates
M83 ; extruder relative mode
M104 S215 ; set extruder temp
M140 S60 ; set bed temp
M190 S60 ; wait for bed temp
M109 S215 ; wait for extruder temp
G28 W ; home all without mesh bed level
G80 ; mesh bed leveling

G1 Z0.2 F720
G1 Y-3 F1000 ; go outside print area
G92 E0
G1 X60 E9 F1000 ; intro line
G1 X100 E12.5 F1000 ; intro line

G92 E0
M221 S95

; Don't change E values below. Excessive value can damage the printer.

M907 E538 ; set extruder motor current
G21 ; set units to millimeters
G90 ; use absolute coordinates
M83 ; use relative distances for extrusion
M900 K0.05 ; Filament gcode LA 1.5
M900 K30 ; Filament gcode LA 1.0
M107
;LAYER_CHANGE
;Z:0.2
;HEIGHT:0.2
;BEFORE_LAYER_CHANGE
G92 E0.0
;0.2


G1 E-.8 F2100
M73 P0 R99
G1 Z.4 F720
;AFTER_LAYER_CHANGE
;0.2
G1 X101.414 Y82.282 F10800
G1 Z.2 F720
G1 E.8 F2100
M204 S800
;TYPE:Skirt/Brim
;WIDTH:0.42
G1 F1200
G1 X102.069 Y81.602 E.0296
G1 X102.718 Y81.074 E.02623
G1 X103.677 Y80.487 E.03525
G1 X104.71 Y80.056 E.0351
G1 X105.703 Y79.805 E.03211
G1 X106.925 Y79.689 E.03849
G1 X147.123 Y79.691 E1.26038
G1 X148.236 Y79.929 E.03569
G1 X148.673 Y80.142 E.01524
G1 X149.269 Y80.588 E.02334
G1 X149.693 Y81.072 E.02018
G1 X149.994 Y81.585 E.01865
G1 X150.217 Y82.212 E.02087
G1 X150.307 Y82.813 E.01905
G1 X150.306 Y107.2 E.76464
G1 X150.186 Y107.9 E.02227
G1 X149.889 Y108.617 E.02433
G1 X149.479 Y109.196 E.02224
G1 X148.98 Y109.654 E.02124
G1 X148.308 Y110.042 E.02433
G1 X147.604 Y110.256 E.02307
G1 X125.794 Y114.345 E.69575
G1 X118.618 Y115.418 E.2275
G1 X102.998 Y115.43 E.48975
G1 X102.296 Y115.328 E.02224
G1 X101.439 Y114.919 E.02977
G1 X100.783 Y114.265 E.02904
G1 X100.352 Y113.507 E.02734
G1 X100.075 Y112.692 E.02699
G1 X99.845 Y111.438 E.03997
G1 X99.727 Y109.921 E.04771
G1 X99.701 Y86.582 E.73178
G1 X99.952 Y85.052 E.04861
G1 X100.578 Y83.503 E.05238
G1 X101.381 Y82.332 E.04452
M204 S1000
; printing object Beamholder-Body id:0 copy 0
;WIPE_START
G1 F8640
G1 X102.069 Y81.602 E-.23162
G1 X102.718 Y81.074 E-.19319
G1 X103.677 Y80.487 E-.25962
G1 X104.139 Y80.294 E-.11557
;WIPE_END
G1 Z.6 F720
G1 X117.245 Y84.683 F10800
G1 Z.2 F720
G1 E.8 F2100
M204 S800
;TYPE:Perimeter
;WIDTH:0.419999
G1 F1200
G1 X117.213 Y84.779 E.00317
G1 X117.213 Y105.221 E.64094
G1 X117.222 Y105.322 E.00318
G1 X117.322 Y105.556 E.00798
G1 X117.583 Y105.752 E.01023
G1 X117.779 Y105.787 E.00624
G1 X138.319 Y105.779 E.64402
G1 X138.674 Y105.561 E.01306
G1 X138.787 Y105.221 E.01123
G1 X138.787 Y96.787 E.26444
G1 X146.644 Y96.787 E.24635
G1 X146.644 Y106.644 E.30906
G1 X137.334 Y106.646 E.29191
G1 X136.03 Y106.726 E.04096
G1 X134.771 Y106.881 E.03977
G1 X134.094 Y106.995 E.02153
G1 X132.821 Y107.272 E.04085
G1 X131.6 Y107.616 E.03977
G1 X130.369 Y108.044 E.04086
G1 X129.167 Y108.547 E.04085
G1 X127.997 Y109.122 E.04088
G1 X126.865 Y109.766 E.04083
G1 X125.75 Y110.496 E.04179
G1 X125.233 Y110.875 E.0201
G1 X124.599 Y110.756 E.02023
G1 X124.088 Y110.567 E.01708
G1 X123.556 Y110.307 E.01857
G1 X122.969 Y109.954 E.02148
G1 X122.247 Y109.414 E.02827
G1 X121.756 Y109.208 E.01669
G1 X121.29 Y108.928 E.01705
G1 X120.818 Y108.745 E.01587
G1 X120.646 Y108.623 E.00661
G1 X120.172 Y108.428 E.01607
G1 X119.902 Y108.355 E.00877
G1 X119.196 Y108.355 E.02214
G1 X118.658 Y108.49 E.01739
G1 X117.941 Y108.92 E.02621
G1 X117.647 Y109.21 E.01295
G1 X103.474 Y109.197 E.44438
G1 X103.374 Y108.558 E.02028
G1 X103.356 Y107.988 E.01788
G1 X103.366 Y86.752 E.66584
G1 X103.486 Y86.061 E.02199
G1 X103.7 Y85.458 E.02006
G1 X104.058 Y84.852 E.02207
G1 X104.529 Y84.334 E.02195
G1 X105.106 Y83.888 E.02287
G1 X105.778 Y83.577 E.02322
G1 X106.301 Y83.435 E.01699
G1 X107.021 Y83.356 E.02271
G1 X146.644 Y83.364 E1.24235
G1 X146.644 Y93.213 E.30881
G1 X138.787 Y93.213 E.24635
G1 X138.787 Y84.779 E.26444
G1 X138.674 Y84.439 E.01123
G1 X138.222 Y84.213 E.01584
G1 X117.779 Y84.213 E.64097
G1 X117.681 Y84.221 E.00308
G1 X117.326 Y84.439 E.01306
G1 X117.264 Y84.626 E.00618
M204 S1000
G1 X117.59 Y84.779 F10800
M204 S800
;TYPE:External perimeter
G1 F1200
G1 X117.59 Y105.221 E.64094
G1 X117.626 Y105.333 E.00369
G1 X117.779 Y105.41 E.00537
G1 X138.221 Y105.41 E.64094
G1 X138.372 Y105.335 E.00529
G1 X138.41 Y105.221 E.00377
G1 X138.41 Y96.41 E.27626
G1 X147.021 Y96.41 E.26999
G1 X147.021 Y106.965 E.33094
G1 X146.968 Y107.021 E.00242
M73 Q0 S99
G1 X137.357 Y107.022 E.30135
G1 X136.076 Y107.101 E.04024
G1 X134.817 Y107.255 E.03977
G1 X134.174 Y107.364 E.02045
G1 X132.935 Y107.633 E.03975
G1 X131.702 Y107.979 E.04015
G1 X130.493 Y108.401 E.04015
G1 X129.312 Y108.895 E.04014
G1 X128.164 Y109.46 E.04012
G1 X127.052 Y110.094 E.04013
G1 X125.972 Y110.8 E.04046
G1 X125.324 Y111.275 E.02519
G1 X124.498 Y111.12 E.02635
G1 X123.957 Y110.921 E.01807
G1 X123.371 Y110.635 E.02045
G1 X122.758 Y110.267 E.02242
G1 X122.021 Y109.716 E.02885
G1 X121.57 Y109.541 E.01517
G1 X121.424 Y109.427 E.00581
G1 X121.222 Y109.349 E.00679
G1 X121.102 Y109.257 E.00474
G1 X120.643 Y109.082 E.0154
G1 X120.389 Y108.904 E.00972
G1 X119.896 Y108.732 E.01637
G1 X119.301 Y108.722 E.01866
G1 X118.852 Y108.813 E.01436
G1 X118.135 Y109.243 E.02621
G1 X117.815 Y109.587 E.01473
G1 X103.183 Y109.574 E.45878
G1 X103.136 Y109.47 E.00358
G1 X102.998 Y108.593 E.02784
G1 X102.979 Y107.993 E.01882
G1 X102.989 Y86.994 E.65841
G1 X103.034 Y86.401 E.01865
G1 X103.176 Y85.758 E.02065
G1 X103.361 Y85.291 E.01575
G1 X103.749 Y84.635 E.0239
G1 X104.069 Y84.248 E.01574
G1 X104.463 Y83.881 E.01688
G1 X104.91 Y83.565 E.01716
G1 X105.398 Y83.312 E.01723
G1 X105.916 Y83.128 E.01724
G1 X106.497 Y83.011 E.01858
G1 X107.01 Y82.979 E.01612
G1 X146.968 Y82.987 E1.25285
G1 X147.021 Y83.027 E.00208
G1 X147.021 Y93.59 E.33119
G1 X138.41 Y93.59 E.26999
G1 X138.41 Y84.779 E.27626
G1 X138.372 Y84.665 E.00377
G1 X138.221 Y84.59 E.00529
G1 X117.779 Y84.59 E.64094
G1 X117.628 Y84.665 E.00529
G1 X117.609 Y84.722 E.00188
M204 S1000
G1 X117.204 Y84.882 F10800
;WIPE_START
G1 F8640
G1 X117.606 Y88.187 E-.8
;WIPE_END
G1 Z.6 F720
G1 X146.474 Y84.297 F10800
G1 Z.2 F720
G1 E.8 F2100
M204 S800
;TYPE:Solid infill
;WIDTH:0.420901
G1 F1200
G1 X145.88 Y83.703 E.0264
G1 X145.345 Y83.703 E.01681
G1 X146.305 Y84.662 E.04265
G1 X146.305 Y85.197 E.01681
G1 X144.81 Y83.703 E.06643
G1 X144.276 Y83.702 E.01678
G1 X146.305 Y85.731 E.09018
G1 X146.305 Y86.266 E.01681
G1 X143.741 Y83.702 E.11396
G1 X143.206 Y83.702 E.01681
G1 X146.305 Y86.8 E.13772
G1 X146.305 Y87.335 E.01681
G1 X142.672 Y83.702 E.16148
G1 X142.137 Y83.702 E.01681
G1 X146.305 Y87.87 E.18526
G1 X146.305 Y88.404 E.01678
G1 X141.603 Y83.702 E.20899
G1 X141.068 Y83.702 E.01681
G1 X146.305 Y88.939 E.23277
G1 X146.305 Y89.473 E.01678
G1 X140.533 Y83.702 E.25653
G1 X139.999 Y83.702 E.01678
G1 X146.305 Y90.008 E.28029
G1 X146.305 Y90.542 E.01678
G1 X139.464 Y83.702 E.30404
G1 X138.929 Y83.701 E.01681
G1 X146.305 Y91.077 E.32785
G1 X146.305 Y91.611 E.01678
G1 X138.225 Y83.532 E.35911
M204 S1000
G1 X138.202 Y84.043 F10800
M204 S800
G1 F1200
G1 X137.86 Y83.701 E.0152
G1 X137.325 Y83.701 E.01681
G1 X137.498 Y83.874 E.00769
G1 X136.963 Y83.874 E.01681
G1 X136.791 Y83.701 E.00767
G1 X136.256 Y83.701 E.01681
G1 X136.429 Y83.874 E.00769
G1 X135.894 Y83.874 E.01681
G1 X135.721 Y83.701 E.00769
G1 X135.187 Y83.701 E.01678
G1 X135.36 Y83.874 E.00769
G1 X134.825 Y83.874 E.01681
G1 X134.652 Y83.701 E.00769
G1 X134.117 Y83.701 E.01681
G1 X134.291 Y83.874 E.00771
G1 X133.756 Y83.874 E.01681
G1 X133.583 Y83.7 E.00771
G1 X133.048 Y83.7 E.01681
G1 X133.221 Y83.874 E.00771
G1 X132.687 Y83.874 E.01678
G1 X132.514 Y83.7 E.00771
G1 X131.979 Y83.7 E.01681
G1 X132.152 Y83.874 E.00771
G1 X131.618 Y83.874 E.01678
G1 X131.444 Y83.7 E.00773
G1 X130.91 Y83.7 E.01678
G1 X131.083 Y83.874 E.00771
G1 X130.549 Y83.874 E.01678
G1 X130.375 Y83.7 E.00773
G1 X129.84 Y83.7 E.01681
G1 X130.014 Y83.874 E.00773
G1 X129.48 Y83.874 E.01678
G1 X129.306 Y83.7 E.00773
G1 X128.771 Y83.7 E.01681
G1 X128.945 Y83.874 E.00773
G1 X128.41 Y83.874 E.01681
G1 X128.236 Y83.699 E.00776
G1 X127.702 Y83.699 E.01678
G1 X127.876 Y83.874 E.00776
G1 X127.341 Y83.874 E.01681
G1 X127.167 Y83.699 E.00776
G1 X126.632 Y83.699 E.01681
G1 X126.807 Y83.874 E.00778
G1 X126.272 Y83.874 E.01681
G1 X126.098 Y83.699 E.00776
G1 X125.563 Y83.699 E.01681
G1 X125.738 Y83.874 E.00778
G1 X125.203 Y83.874 E.01681
G1 X125.028 Y83.699 E.00778
G1 X124.494 Y83.699 E.01678
G1 X124.669 Y83.874 E.00778
G1 X124.134 Y83.874 E.01681
G1 X123.959 Y83.699 E.00778
G1 X123.425 Y83.698 E.01678
G1 X123.6 Y83.874 E.0078
G1 X123.065 Y83.874 E.01681
G1 X122.89 Y83.698 E.0078
G1 X122.355 Y83.698 E.01681
G1 X122.53 Y83.874 E.0078
G1 X121.996 Y83.874 E.01678
G1 X121.821 Y83.698 E.0078
G1 X121.286 Y83.698 E.01681
G1 X121.461 Y83.874 E.0078
G1 X120.927 Y83.874 E.01678
G1 X120.751 Y83.698 E.00782
G1 X120.217 Y83.698 E.01678
G1 X120.392 Y83.874 E.0078
G1 X119.858 Y83.874 E.01678
G1 X119.682 Y83.698 E.00782
G1 X119.147 Y83.698 E.01681
G1 X119.323 Y83.874 E.00782
G1 X118.789 Y83.874 E.01678
G1 X118.613 Y83.698 E.00782
G1 X118.078 Y83.697 E.01681
G1 X118.254 Y83.874 E.00785
G1 X117.724 Y83.878 E.01666
G1 X117.543 Y83.697 E.00805
G1 X117.009 Y83.697 E.01678
G1 X117.352 Y84.041 E.01527
G1 X117.049 Y84.226 E.01116
G1 X117.038 Y84.261 E.00115
G1 X116.474 Y83.697 E.02507
G1 X115.939 Y83.697 E.01681
G1 X116.904 Y84.662 E.04289
G1 X116.874 Y84.754 E.00304
G1 X116.874 Y85.166 E.01295
G1 X115.405 Y83.697 E.06529
G1 X114.87 Y83.697 E.01681
G1 X116.874 Y85.7 E.08905
G1 X116.874 Y86.235 E.01681
G1 X114.335 Y83.697 E.11283
G1 X113.801 Y83.697 E.01678
G1 X116.874 Y86.769 E.13657
G1 X116.874 Y87.304 E.01681
G1 X113.266 Y83.697 E.16034
G1 X112.732 Y83.696 E.01678
G1 X116.874 Y87.838 E.1841
G1 X116.874 Y88.373 E.01681
G1 X112.197 Y83.696 E.20788
G1 X111.662 Y83.696 E.01681
G1 X116.874 Y88.908 E.23166
G1 X116.874 Y89.442 E.01678
G1 X111.128 Y83.696 E.2554
G1 X110.593 Y83.696 E.01681
G1 X116.874 Y89.977 E.27918
G1 X116.874 Y90.511 E.01678
G1 X110.058 Y83.696 E.30293
G1 X109.524 Y83.696 E.01678
G1 X116.874 Y91.046 E.32669
G1 X116.874 Y91.58 E.01678
G1 X108.989 Y83.696 E.35045
G1 X108.454 Y83.696 E.01681
G1 X116.874 Y92.115 E.37423
G1 X116.874 Y92.649 E.01678
G1 X107.92 Y83.696 E.39796
G1 X107.385 Y83.695 E.01681
G1 X116.874 Y93.184 E.42176
G1 X116.874 Y93.718 E.01678
G1 X106.865 Y83.709 E.44488
G1 X106.59 Y83.723 E.00865
G1 X106.385 Y83.765 E.00658
G1 X116.874 Y94.253 E.46619
G1 X116.874 Y94.788 E.01681
G1 X105.959 Y83.873 E.48515
G1 X105.578 Y84.026 E.0129
G1 X116.874 Y95.322 E.50208
G1 X116.874 Y95.857 E.01681
G1 X105.232 Y84.215 E.51746
G1 X104.919 Y84.436 E.01204
G1 X116.874 Y96.391 E.53137
G1 X116.874 Y96.926 E.01681
G1 X104.642 Y84.694 E.54368
G1 X104.591 Y84.741 E.00218
G1 X104.393 Y84.98 E.00975
G1 X116.874 Y97.46 E.55473
G1 X116.874 Y97.995 E.01681
M73 P1 R99
M73 Q1 S99
G1 X104.184 Y85.306 E.56402
G1 X103.991 Y85.646 E.01229
G1 X116.874 Y98.529 E.57262
G1 X116.874 Y99.064 E.01681
G1 X103.844 Y86.034 E.57915
G1 X103.747 Y86.472 E.0141
G1 X116.874 Y99.598 E.58344
G1 X116.874 Y100.133 E.01681
G1 X103.705 Y86.965 E.58531
G1 X103.705 Y87.499 E.01678
M73 P1 R98
G1 X116.874 Y100.668 E.58533
G1 X116.874 Y101.202 E.01678
G1 X103.705 Y88.033 E.58533
G1 X103.704 Y88.568 E.01681
G1 X116.874 Y101.737 E.58535
G1 X116.874 Y102.271 E.01678
G1 X103.704 Y89.102 E.58535
G1 X103.704 Y89.636 E.01678
G1 X116.874 Y102.806 E.58538
G1 X116.874 Y103.34 E.01678
G1 X103.704 Y90.17 E.58538
G1 X103.703 Y90.705 E.01681
G1 X116.874 Y103.875 E.5854
G1 X116.874 Y104.409 E.01678
G1 X103.703 Y91.239 E.5854
G1 X103.703 Y91.773 E.01678
G1 X117.043 Y105.114 E.59295
M204 S1000
;WIPE_START
G1 F8640
G1 X114.593 Y102.664 E-.8
;WIPE_END
G1 Z.6 F720
G1 X138.957 Y84.798 F10800
G1 Z.2 F720
G1 E.8 F2100
M204 S800
G1 F1200
G1 X146.305 Y92.146 E.3266
G1 X146.305 Y92.68 E.01678
G1 X139.126 Y85.502 E.31907
G1 X139.126 Y86.037 E.01681
G1 X145.963 Y92.874 E.30389
G1 X145.429 Y92.874 E.01678
G1 X139.126 Y86.571 E.28015
G1 X139.126 Y87.106 E.01681
G1 X144.894 Y92.874 E.25637
G1 X144.36 Y92.874 E.01678
G1 X139.126 Y87.64 E.23264
G1 X139.126 Y88.175 E.01681
G1 X143.825 Y92.874 E.20886
G1 X143.291 Y92.874 E.01678
G1 X139.126 Y88.71 E.1851
G1 X139.126 Y89.244 E.01678
G1 X142.756 Y92.874 E.16135
G1 X142.221 Y92.874 E.01681
G1 X139.126 Y89.779 E.13757
G1 X139.126 Y90.313 E.01678
G1 X141.687 Y92.874 E.11383
G1 X141.152 Y92.874 E.01681
G1 X139.126 Y90.848 E.09005
G1 X139.126 Y91.382 E.01678
G1 X140.618 Y92.874 E.06632
G1 X140.083 Y92.874 E.01681
G1 X139.126 Y91.917 E.04254
G1 X139.126 Y92.451 E.01678
G1 X139.718 Y93.043 E.02631
M204 S1000
;WIPE_START
G1 F8640
G1 X139.126 Y92.451 E-.19332
G1 X139.126 Y91.917 E-.1233
G1 X140.083 Y92.874 E-.3125
G1 X140.618 Y92.874 E-.12353
G1 X140.473 Y92.729 E-.04735
;WIPE_END
G1 Z.6 F720
G1 X145.77 Y96.957 F10800
G1 Z.2 F720
G1 E.8 F2100
M204 S800
G1 F1200
G1 X146.305 Y97.491 E.02376
G1 X146.305 Y98.026 E.01681
G1 X145.405 Y97.126 E.04
G1 X144.871 Y97.126 E.01678
G1 X146.305 Y98.56 E.06374
G1 X146.305 Y99.095 E.01681
G1 X144.336 Y97.126 E.08752
G1 X143.802 Y97.126 E.01678
G1 X146.305 Y99.63 E.11127
G1 X146.305 Y100.164 E.01678
G1 X143.267 Y97.126 E.13503
G1 X142.732 Y97.126 E.01681
G1 X146.305 Y100.699 E.15881
G1 X146.305 Y101.233 E.01678
G1 X142.198 Y97.126 E.18255
G1 X141.663 Y97.126 E.01681
G1 X146.305 Y101.768 E.20633
G1 X146.305 Y102.302 E.01678
G1 X141.129 Y97.126 E.23006
G1 X140.594 Y97.126 E.01681
G1 X146.305 Y102.837 E.25384
G1 X146.305 Y103.371 E.01678
G1 X140.06 Y97.126 E.27758
G1 X139.525 Y97.126 E.01681
G1 X146.305 Y103.906 E.30136
G1 X146.305 Y104.44 E.01678
G1 X139.126 Y97.262 E.31907
G1 X139.126 Y97.797 E.01681
G1 X146.305 Y104.975 E.31907
G1 X146.305 Y105.51 E.01681
G1 X139.126 Y98.331 E.31909
G1 X139.126 Y98.866 E.01681
G1 X146.305 Y106.044 E.31907
G1 X146.305 Y106.305 E.0082
G1 X146.031 Y106.305 E.00861
G1 X139.126 Y99.4 E.30691
G1 X139.126 Y99.935 E.01681
G1 X145.496 Y106.305 E.28313
G1 X144.962 Y106.305 E.01678
G1 X139.126 Y100.47 E.25937
G1 X139.126 Y101.004 E.01678
G1 X144.427 Y106.305 E.23562
G1 X143.893 Y106.305 E.01678
G1 X139.126 Y101.539 E.21186
G1 X139.126 Y102.073 E.01678
G1 X143.358 Y106.305 E.1881
G1 X142.824 Y106.305 E.01678
G1 X139.126 Y102.608 E.16435
G1 X139.126 Y103.142 E.01678
G1 X142.289 Y106.305 E.14059
G1 X141.755 Y106.305 E.01678
G1 X139.126 Y103.677 E.11683
G1 X139.126 Y104.211 E.01678
G1 X141.22 Y106.305 E.09307
G1 X140.686 Y106.305 E.01678
G1 X139.126 Y104.746 E.06932
G1 X139.118 Y105.272 E.01653
G1 X140.151 Y106.305 E.04591
G1 X139.617 Y106.305 E.01678
G1 X138.984 Y105.673 E.02811
G1 X138.951 Y105.774 E.00334
G1 X138.703 Y105.926 E.00914
G1 X139.082 Y106.305 E.01685
G1 X138.547 Y106.305 E.01681
G1 X138.357 Y106.115 E.00845
G1 X137.823 Y106.115 E.01678
G1 X138.013 Y106.305 E.00845
G1 X137.478 Y106.305 E.01681
G1 X137.289 Y106.116 E.0084
G1 X136.755 Y106.116 E.01678
G1 X136.968 Y106.329 E.00947
G1 X136.464 Y106.36 E.01587
G1 X136.22 Y106.116 E.01085
G1 X135.686 Y106.117 E.01678
G1 X135.962 Y106.393 E.01227
G1 X135.486 Y106.451 E.01507
G1 X135.152 Y106.117 E.01485
G1 X134.618 Y106.117 E.01678
M73 Q1 S98
G1 X135.01 Y106.509 E.01742
G1 X134.542 Y106.576 E.01486
G1 X134.083 Y106.117 E.0204
G1 X133.549 Y106.118 E.01678
G1 X134.084 Y106.653 E.02378
G1 X133.643 Y106.746 E.01417
G1 X133.015 Y106.118 E.02791
G1 X132.481 Y106.118 E.01678
