; generated by PrusaSlicer 2.6.0-alpha5+win64 on 2023-06-15 at 10:18:39 UTC


;
;
; 

; external perimeters extrusion width = 0.60mm
; perimeters extrusion width = 0.50mm
; infill extrusion width = 0.50mm
; solid infill extrusion width = 0.50mm
; top infill extrusion width = 0.45mm
; first layer extrusion width = 0.42mm

; external perimeters extrusion width = 0.60mm
; perimeters extrusion width = 0.50mm
; infill extrusion width = 0.50mm
; solid infill extrusion width = 0.50mm
; top infill extrusion width = 0.45mm
; first layer extrusion width = 0.42mm

M73 P0 R65
M73 Q0 S66
M201 X1000 Y1000 Z200 E5000 ; sets maximum accelerations, mm/sec^2
M203 X200 Y200 Z12 E120 ; sets maximum feedrates, mm / sec
M204 P1250 R1250 T1250 ; sets acceleration (P, T) and retract acceleration (R), mm/sec^2
M205 X8.00 Y8.00 Z0.40 E4.50 ; sets the jerk limits, mm/sec
M205 S0 T0 ; sets the minimum extruding and travel feed rate, mm/sec
M107
;TYPE:Custom
M862.3 P "MK3S" ; printer model check
M862.1 P0.4 ; nozzle diameter check
M115 U3.12.2 ; tell printer latest fw version
G90 ; use absolute coordinates
M83 ; extruder relative mode
M104 S215 ; set extruder temp
M140 S60 ; set bed temp
M190 S60 ; wait for bed temp
M109 S215 ; wait for extruder temp
G28 W ; home all without mesh bed level
G80 ; mesh bed leveling

G1 Z0.2 F720
G1 Y-3 F1000 ; go outside print area
G92 E0
G1 X60 E9 F1000 ; intro line
G1 X100 E12.5 F1000 ; intro line

G92 E0
M221 S95

; Don't change E values below. Excessive value can damage the printer.

M907 E538 ; set extruder motor current
G21 ; set units to millimeters
G90 ; use absolute coordinates
M83 ; use relative distances for extrusion
M900 K0.05 ; Filament gcode LA 1.5
M900 K30 ; Filament gcode LA 1.0
M107
;LAYER_CHANGE
;Z:0.2
;HEIGHT:0.2
;BEFORE_LAYER_CHANGE
G92 E0.0
;0.2


G1 E-.8 F2100
G1 Z.4 F720
;AFTER_LAYER_CHANGE
;0.2
G1 X75.604 Y76.505 F10800
G1 Z.2 F720
G1 E.8 F2100
M204 S800
;TYPE:Skirt/Brim
;WIDTH:0.42
G1 F1200
G1 X119.088 Y33.534 E1.91681
G1 X122.226 Y30.686 E.13287
G1 X124.163 Y29.143 E.07765
G1 X125.872 Y27.9 E.06626
G1 X128.192 Y26.373 E.08708
G1 X130.029 Y25.284 E.06696
G1 X134.026 Y23.245 E.14069
G1 X136.671 Y22.122 E.0901
G1 X138.653 Y21.39 E.06625
G1 X142.696 Y20.17 E.13241
G1 X146.872 Y19.271 E.13394
G1 X149.961 Y18.832 E.09783
G1 X152.064 Y18.639 E.06622
G1 X156.328 Y18.51 E.13376
G1 X159.458 Y18.636 E.09822
G1 X162.528 Y18.944 E.09674
G1 X165.073 Y19.341 E.08076
G1 X167.71 Y19.885 E.08442
M73 P0 R64
G1 X170.738 Y20.691 E.09825
G1 X173.667 Y21.66 E.09673
G1 X175.659 Y22.431 E.06697
G1 X178.504 Y23.7 E.09767
G1 X182.189 Y25.662 E.1309
G1 X233.734 Y55.902 E1.87376
G1 X234.213 Y56.243 E.01844
G1 X234.801 Y56.889 E.02739
G1 X235.087 Y57.384 E.01792
G1 X235.328 Y58.096 E.02357
G1 X235.408 Y58.818 E.02278
G1 X235.408 Y82.818 E.7525
G1 X235.248 Y83.841 E.03247
G1 X234.873 Y84.639 E.02765
G1 X234.409 Y85.216 E.02322
G1 X160.344 Y158.389 E3.26445
G1 X108.308 Y188.976 E1.89254
G1 X104.889 Y190.807 E.12161
G1 X101.964 Y192.127 E.10062
G1 X99.002 Y193.252 E.09934
G1 X95.004 Y194.457 E.13092
G1 X91.867 Y195.165 E.10083
G1 X88.74 Y195.674 E.09934
G1 X85.588 Y195.991 E.09933
G1 X81.42 Y196.118 E.13075
G1 X78.29 Y195.994 E.09822
G1 X75.125 Y195.677 E.09973
G1 X71.055 Y194.98 E.12947
G1 X67.966 Y194.225 E.0997
G1 X64.033 Y192.968 E.12946
G1 X61.122 Y191.809 E.09824
G1 X58.025 Y190.345 E.10741
G1 X55.252 Y188.814 E.09932
G1 X52.852 Y187.302 E.08894
G1 X50.299 Y185.484 E.09827
G1 X47.861 Y183.516 E.09824
M73 Q0 S65
G1 X45.562 Y181.422 E.0975
G1 X23.243 Y158.16 E1.01079
G1 X22.669 Y157.36 E.03087
G1 X22.371 Y156.536 E.02747
G1 X22.29 Y155.809 E.02294
G1 X22.29 Y131.807 E.75257
G1 X22.395 Y130.974 E.02632
G1 X22.722 Y130.156 E.02762
G1 X23.243 Y129.457 E.02733
G1 X44.818 Y106.929 E.97803
G1 X75.562 Y76.547 E1.35524
M204 S1000
; printing object PedFlesHolderBottom-Bottom id:0 copy 0
;WIPE_START
G1 F8640
G1 X78.026 Y74.112 E-.8
;WIPE_END
G1 Z.6 F720
G1 X34.993 Y156.42 F10800
G1 Z.2 F720
G1 E.8 F2100
M204 S800
;TYPE:Perimeter
;WIDTH:0.530582
G1 F1200
G1 X34.794 Y156.288 E.00968
;WIDTH:0.493721
G1 X34.595 Y156.156 E.00895
;WIDTH:0.45686
G1 X34.396 Y156.024 E.00822
;WIDTH:0.419999
G1 X25.73 Y156.022 E.27172
G1 X25.516 Y155.946 E.00712
G1 X25.462 Y155.817 E.00438
G1 X25.457 Y154.596 E.03828
G1 X31.889 Y154.596 E.20167
G1 X32.203 Y154.501 E.01029
G1 X32.39 Y154.293 E.00877
G1 X32.455 Y154.03 E.00849
G1 X32.455 Y133.743 E.63608
G1 X32.39 Y133.325 E.01326
M73 P1 R64
G1 X32.203 Y133.117 E.00877
M73 Q1 S65
G1 X31.889 Y133.022 E.01029
G1 X25.455 Y133.022 E.20173
G1 X25.455 Y131.869 E.03615
G1 X25.508 Y131.685 E.006
G1 X25.659 Y131.602 E.0054
G1 X34.396 Y131.594 E.27394
;WIDTH:0.459884
G1 X34.587 Y131.491 E.00752
;WIDTH:0.499768
G1 X34.777 Y131.387 E.00823
;WIDTH:0.539652
G1 X34.967 Y131.283 E.00895
G1 X34.917 Y131.566 E.01187
;WIDTH:0.499768
G1 X34.867 Y131.849 E.01092
;WIDTH:0.459884
G1 X34.816 Y132.132 E.00997
;WIDTH:0.419999
G1 X34.593 Y133.029 E.02898
G1 X34.389 Y133.968 E.03013
G1 X34.032 Y135.886 E.06117
G1 X33.876 Y136.891 E.03189
G1 X33.636 Y138.839 E.06154
G1 X33.541 Y139.864 E.03228
G1 X33.422 Y141.811 E.06116
G1 X33.381 Y143.797 E.06228
G1 X33.422 Y145.807 E.06304
G1 X33.542 Y147.766 E.06154
G1 X33.636 Y148.778 E.03187
G1 X33.876 Y150.727 E.06157
G1 X34.03 Y151.726 E.03169
G1 X34.391 Y153.661 E.06172
G1 X34.608 Y154.655 E.0319
G1 X34.816 Y155.485 E.02683
;WIDTH:0.45686
G1 X34.875 Y155.797 E.01093
;WIDTH:0.493721
G1 X34.934 Y156.108 E.01187
;WIDTH:0.530582
G1 X34.982 Y156.361 E.01044
M204 S1000
;WIPE_START
G1 F8640
G1 X34.794 Y156.288 E-.04657
G1 X34.595 Y156.156 E-.05514
G1 X34.396 Y156.024 E-.05514
G1 X31.611 Y156.023 E-.64315
;WIPE_END
G1 Z.6 F720
G1 X152.955 Y142.522 F10800
G1 Z.2 F720
G1 E.8 F2100
M204 S800
;WIDTH:0.419999
G1 F1200
G1 X152.955 Y133.587 E.28015
G1 X152.911 Y133.37 E.00694
G1 X152.728 Y133.135 E.00934
G1 X152.389 Y133.022 E.0112
G1 X131.946 Y133.022 E.64097
G1 X131.632 Y133.117 E.01029
G1 X131.444 Y133.327 E.00884
G1 X131.38 Y133.587 E.0084
G1 X131.38 Y142.522 E.28015
G1 X130.429 Y142.522 E.02982
G1 X130.39 Y141.304 E.03821
G1 X130.247 Y139.328 E.06212
G1 X130.145 Y138.334 E.03133
G1 X129.884 Y136.388 E.06156
G1 X129.629 Y134.906 E.04715
G1 X129.333 Y133.437 E.04699
G1 X129.019 Y132.129 E.04218
;WIDTH:0.460785
G1 X128.971 Y131.854 E.0097
;WIDTH:0.501571
G1 X128.923 Y131.578 E.01068
;WIDTH:0.542356
G1 X128.875 Y131.303 E.01159
G1 X128.939 Y131.37 E.00385
;WIDTH:0.512488
G1 X129.004 Y131.438 E.00367
;WIDTH:0.482619
G1 X129.222 Y131.517 E.00848
;WIDTH:0.451309
G1 X129.44 Y131.596 E.00787
;WIDTH:0.419999
G1 X158.123 Y131.596 E.89933
G1 X158.314 Y131.662 E.00634
G1 X158.38 Y131.853 E.00634
G1 X158.38 Y142.522 E.33452
G1 X153.015 Y142.522 E.16822
M204 S1000
;WIPE_START
G1 F8640
G1 X152.992 Y139.057 E-.8
;WIPE_END
G1 Z.6 F720
G1 X152.955 Y145.096 F10800
G1 Z.2 F720
G1 E.8 F2100
M204 S800
G1 F1200
G1 X158.38 Y145.096 E.1701
G1 X158.38 Y147.809 E.08506
G1 X158.38 Y155.747 E.24889
G1 X158.31 Y155.951 E.00676
G1 X158.105 Y156.022 E.0068
G1 X129.44 Y156.022 E.89877
;WIDTH:0.458836
G1 X129.24 Y156.154 E.00829
;WIDTH:0.497672
G1 X129.039 Y156.286 E.00909
;WIDTH:0.536508
G1 X128.839 Y156.417 E.00981
G1 X128.932 Y155.987 E.01806
;WIDTH:0.497672
G1 X129.024 Y155.557 E.01663
;WIDTH:0.458836
G1 X129.117 Y155.127 E.01521
;WIDTH:0.419999
G1 X129.54 Y153.186 E.06229
G1 X129.884 Y151.229 E.0623
G1 X130.145 Y149.284 E.06153
G1 X130.33 Y147.288 E.06285
G1 X130.391 Y146.292 E.03129
G1 X130.429 Y145.096 E.03752
G1 X131.38 Y145.096 E.02982
G1 X131.38 Y154.03 E.28012
G1 X131.444 Y154.291 E.00843
G1 X131.631 Y154.5 E.00879
G1 X131.946 Y154.596 E.01033
G1 X152.389 Y154.596 E.64097
G1 X152.728 Y154.483 E.0112
G1 X152.911 Y154.248 E.00934
G1 X152.955 Y154.03 E.00697
G1 X152.955 Y145.156 E.27824
M204 S1000
G1 X152.578 Y144.719 F10800
M204 S800
;TYPE:External perimeter
G1 F1200
G1 X158.758 Y144.719 E.19377
G1 X158.758 Y155.717 E.34483
G1 X158.708 Y156.034 E.01006
G1 X158.581 Y156.224 E.00717
G1 X158.392 Y156.35 E.00712
G1 X158.142 Y156.399 E.00799
G1 X129.44 Y156.399 E.89993
G1 X129.258 Y156.536 E.00714
G1 X128.91 Y157.766 E.04008
G1 X128.619 Y158.711 E.031
G1 X127.979 Y160.585 E.06209
G1 X127.264 Y162.43 E.06204
G1 X126.475 Y164.246 E.06208
G1 X125.614 Y166.028 E.06205
G1 X124.681 Y167.774 E.06207
G1 X123.679 Y169.481 E.06206
G1 X122.608 Y171.146 E.06207
G1 X121.472 Y172.766 E.06204
G1 X120.27 Y174.339 E.06207
G1 X119.007 Y175.863 E.06206
G1 X117.682 Y177.334 E.06207
G1 X116.3 Y178.75 E.06204
G1 X114.861 Y180.11 E.06208
G1 X113.368 Y181.411 E.06209
G1 X112.604 Y182.038 E.03099
G1 X111.542 Y182.866 E.04222
G1 X110.232 Y183.825 E.0509
G1 X109.42 Y184.388 E.03098
G1 X107.759 Y185.466 E.06209
G1 X106.056 Y186.475 E.06206
G1 X104.314 Y187.415 E.06206
G1 X102.535 Y188.283 E.06206
G1 X100.724 Y189.079 E.06203
G1 X98.881 Y189.801 E.06206
G1 X97.01 Y190.449 E.06208
G1 X95.115 Y191.02 E.06206
G1 X93.198 Y191.514 E.06207
G1 X91.263 Y191.931 E.06206
G1 X89.313 Y192.269 E.06205
G1 X87.351 Y192.528 E.06205
G1 X85.38 Y192.707 E.06205
G1 X83.403 Y192.807 E.06207
G1 X81.429 Y192.827 E.0619
G1 X79.472 Y192.769 E.06139
G1 X78.497 Y192.71 E.03063
G1 X76.546 Y192.535 E.06142
G1 X74.604 Y192.281 E.06141
G1 X73.64 Y192.126 E.03061
G1 X71.717 Y191.757 E.06139
G1 X69.811 Y191.311 E.06138
G1 X67.924 Y190.79 E.06138
G1 X66.06 Y190.194 E.06136
G1 X64.221 Y189.524 E.06137
G1 X62.408 Y188.78 E.06145
G1 X61.302 Y188.284 E.03801
G1 X59.752 Y187.533 E.054
G1 X58.024 Y186.613 E.06138
G1 X56.334 Y185.624 E.0614
G1 X55.243 Y184.937 E.04042
G1 X53.603 Y183.826 E.06211
G1 X52.802 Y183.247 E.03099
G1 X51.521 Y182.268 E.05055
G1 X50.467 Y181.411 E.04259
G1 X49.716 Y180.77 E.03096
G1 X48.249 Y179.439 E.06211
G1 X46.837 Y178.05 E.0621
G1 X46.154 Y177.336 E.03098
G1 X45.137 Y176.216 E.04743
G1 X44.19 Y175.109 E.04568
G1 X43.566 Y174.342 E.031
G1 X42.364 Y172.768 E.0621
G1 X41.227 Y171.147 E.06208
G1 X40.684 Y170.321 E.03099
G1 X39.937 Y169.121 E.04432
G1 X39.154 Y167.775 E.04882
G1 X38.68 Y166.908 E.03098
G1 X37.782 Y165.143 E.06209
G1 X36.957 Y163.343 E.06208
G1 X36.572 Y162.433 E.03098
G1 X36.089 Y161.211 E.0412
G1 X35.527 Y159.653 E.05193
G1 X34.926 Y157.768 E.06203
G1 X34.577 Y156.538 E.04009
G1 X34.396 Y156.401 E.00712
G1 X25.759 Y156.399 E.27081
G1 X25.443 Y156.35 E.01003
G1 X25.205 Y156.164 E.00947
G1 X25.085 Y155.88 E.00967
G1 X25.078 Y154.219 E.05208
G1 X31.889 Y154.219 E.21355
G1 X31.994 Y154.187 E.00344
G1 X32.078 Y154.03 E.00558
G1 X32.078 Y133.587 E.64097
G1 X31.994 Y133.431 E.00556
G1 X31.889 Y133.399 E.00344
G1 X25.078 Y133.399 E.21355
G1 X25.086 Y131.764 E.05126
G1 X25.202 Y131.451 E.01047
G1 X25.375 Y131.3 E.0072
G1 X25.597 Y131.225 E.00735
G1 X34.396 Y131.217 E.27589
G1 X34.577 Y131.08 E.00712
G1 X34.926 Y129.85 E.04009
G1 X35.217 Y128.905 E.031
G1 X35.527 Y127.966 E.031
G1 X36.089 Y126.407 E.05196
G1 X36.572 Y125.185 E.0412
G1 X36.957 Y124.275 E.03098
G1 X37.782 Y122.475 E.06208
G1 X38.68 Y120.71 E.06209
G1 X39.154 Y119.843 E.03098
G1 X39.937 Y118.497 E.04882
G1 X40.684 Y117.297 E.04432
G1 X41.227 Y116.472 E.03097
G1 X42.364 Y114.85 E.06211
G1 X43.566 Y113.276 E.0621
G1 X44.19 Y112.509 E.031
G1 X45.137 Y111.402 E.04568
G1 X46.154 Y110.282 E.04743
G1 X46.837 Y109.568 E.03098
G1 X48.249 Y108.179 E.0621
G1 X49.716 Y106.848 E.06211
G1 X50.467 Y106.207 E.03096
G1 X51.521 Y105.35 E.04259
G1 X52.802 Y104.371 E.05055
G1 X53.603 Y103.792 E.03099
G1 X54.417 Y103.228 E.03105
G1 X55.504 Y102.512 E.04081
G1 X57.175 Y101.491 E.0614
G1 X58.884 Y100.537 E.06137
G1 X60.63 Y99.651 E.06139
G1 X62.203 Y98.927 E.05429
G1 X64.031 Y98.168 E.06206
G1 X65.888 Y97.483 E.06206
G1 X67.772 Y96.873 E.06209
G1 X68.721 Y96.598 E.03098
G1 X70.639 Y96.103 E.06211
G1 X71.603 Y95.885 E.03099
G1 X73.547 Y95.508 E.06209
G1 X75.504 Y95.209 E.06207
G1 X77.471 Y94.99 E.06205
G1 X79.445 Y94.85 E.06205
G1 X81.424 Y94.79 E.06208
G1 X82.874 Y94.8 E.04546
G1 X84.365 Y94.849 E.04677
G1 X85.34 Y94.908 E.03063
G1 X87.291 Y95.083 E.06142
G1 X89.231 Y95.337 E.06135
G1 X91.161 Y95.667 E.06139
G1 X93.075 Y96.075 E.06136
G1 X94.972 Y96.558 E.06138
G1 X96.848 Y97.117 E.06138
G1 X98.7 Y97.75 E.06137
G1 X100.525 Y98.457 E.06137
G1 X102.321 Y99.236 E.06138
G1 X104.084 Y100.086 E.06137
G1 X105.812 Y101.006 E.06138
G1 X107.502 Y101.994 E.06138
G1 X109.151 Y103.049 E.06138
G1 X110.756 Y104.168 E.06135
G1 X112.316 Y105.351 E.06139
G1 X113.827 Y106.595 E.06137
G1 X115.287 Y107.899 E.06138
G1 X116.694 Y109.259 E.06136
G1 X118.045 Y110.675 E.06136
G1 X119.339 Y112.144 E.06138
G1 X120.573 Y113.663 E.06136
G1 X121.746 Y115.23 E.06137
G1 X122.855 Y116.843 E.06137
G1 X123.899 Y118.499 E.06138
G1 X124.876 Y120.195 E.06137
G1 X125.784 Y121.928 E.06134
G1 X126.623 Y123.697 E.06139
G1 X127.39 Y125.498 E.06138
G1 X128.085 Y127.328 E.06138
G1 X128.706 Y129.184 E.06136
G1 X129.259 Y131.083 E.06201
G1 X129.27 Y131.112 E.00097
G1 X129.44 Y131.219 E.0063
G1 X158.147 Y131.219 E.90009
G1 X158.461 Y131.3 E.01017
M73 P1 R63
G1 X158.677 Y131.515 E.00956
G1 X158.758 Y131.829 E.01017
G1 X158.758 Y142.899 E.34709
G1 X152.578 Y142.899 E.19377
G1 X152.578 Y133.587 E.29197
G1 X152.502 Y133.437 E.00527
G1 X152.389 Y133.399 E.00374
G1 X131.914 Y133.402 E.64198
G1 X131.779 Y133.5 E.00523
G1 X131.758 Y133.587 E.00281
G1 X131.758 Y142.899 E.29197
G1 X130.064 Y142.899 E.05311
G1 X130.014 Y141.331 E.04919
G1 X129.873 Y139.373 E.06155
G1 X129.771 Y138.384 E.03117
G1 X129.509 Y136.432 E.06175
G1 X129.259 Y134.98 E.0462
G1 X128.967 Y133.525 E.04653
G1 X128.506 Y131.608 E.06182
G1 X127.97 Y129.72 E.06154
G1 X127.671 Y128.775 E.03108
G1 X127.018 Y126.916 E.06178
G1 X126.288 Y125.084 E.06183
G1 X125.895 Y124.178 E.03096
G1 X125.058 Y122.402 E.06156
G1 X124.607 Y121.516 E.03117
G1 X123.66 Y119.788 E.06178
G1 X122.642 Y118.101 E.06178
G1 X121.556 Y116.456 E.0618
G1 X120.408 Y114.863 E.06157
G1 X119.188 Y113.308 E.06197
G1 X118.555 Y112.55 E.03096
G1 X117.245 Y111.078 E.06178
G1 X115.877 Y109.66 E.06178
G1 X114.451 Y108.299 E.06181
G1 X113.716 Y107.64 E.03095
G1 X112.21 Y106.369 E.06179
G1 X110.664 Y105.169 E.06136
G1 X109.857 Y104.582 E.03129
G1 X108.665 Y103.769 E.04524
G1 X108.229 Y103.472 E.01654
G1 X106.556 Y102.429 E.06181
G1 X105.704 Y101.933 E.03091
G1 X104.843 Y101.455 E.03088
G1 X103.091 Y100.553 E.06179
M73 P2 R63
G1 X101.302 Y99.722 E.06185
G1 X100.394 Y99.334 E.03096
G1 X98.559 Y98.615 E.06179
G1 X96.703 Y97.975 E.06156
G1 X94.808 Y97.406 E.06204
G1 X92.898 Y96.917 E.06182
G1 X90.972 Y96.508 E.06173
M73 Q2 S65
G1 X90 Y96.332 E.03097
G1 X88.051 Y96.041 E.06179
G1 X86.099 Y95.831 E.06156
G1 X85.111 Y95.755 E.03107
G1 X83.14 Y95.664 E.06187
G1 X81.171 Y95.655 E.06174
G1 X80.183 Y95.68 E.03099
G1 X78.216 Y95.791 E.06177
G1 X76.262 Y95.982 E.06156
G1 X75.278 Y96.109 E.03111
G1 X73.332 Y96.42 E.06179
G1 X72.362 Y96.606 E.03097
G1 X70.44 Y97.036 E.06175
G1 X68.523 Y97.549 E.06222
G1 X66.66 Y98.13 E.06119
G1 X65.723 Y98.453 E.03108
G1 X63.892 Y99.15 E.06143
G1 X62.969 Y99.533 E.03133
G1 X61.173 Y100.346 E.06181
G1 X59.424 Y101.224 E.06136
G1 X58.548 Y101.699 E.03124
G1 X56.842 Y102.692 E.06189
G1 X54.902 Y103.943 E.07238
G1 X53.564 Y104.88 E.05122
G1 X51.996 Y106.072 E.06176
G1 X50.477 Y107.327 E.06178
G1 X49.738 Y107.978 E.03088
G1 X48.299 Y109.324 E.06178
G1 X46.786 Y110.87 E.06782
G1 X46.244 Y111.454 E.02498
G1 X44.955 Y112.935 E.06156
G1 X44.326 Y113.704 E.03115
G1 X43.126 Y115.267 E.06178
G1 X41.995 Y116.872 E.06156
G1 X41.442 Y117.711 E.03151
G1 X40.415 Y119.377 E.06136
G1 X39.443 Y121.11 E.0623
G1 X38.993 Y121.972 E.03049
G1 X38.136 Y123.745 E.06174
G1 X37.735 Y124.645 E.03089
G1 X36.987 Y126.47 E.06184
G1 X36.316 Y128.321 E.06173
G1 X35.72 Y130.2 E.06181
G1 X35.451 Y131.151 E.03099
G1 X34.962 Y133.11 E.06331
G1 X34.759 Y134.037 E.02975
G1 X34.402 Y135.956 E.0612
G1 X34.25 Y136.937 E.03113
G1 X34.01 Y138.886 E.06157
G1 X33.918 Y139.887 E.03152
G1 X33.798 Y141.842 E.06141
G1 X33.758 Y143.805 E.06156
G1 X33.798 Y145.776 E.06181
G1 X33.919 Y147.743 E.06179
G1 X34.01 Y148.732 E.03114
G1 X34.251 Y150.686 E.06173
G1 X34.402 Y151.66 E.0309
G1 X34.762 Y153.592 E.06162
G1 X34.974 Y154.563 E.03116
G1 X35.452 Y156.473 E.06173
