; generated by PrusaSlicer 2.6.0-alpha5+win64 on 2023-06-05 at 07:50:46 UTC


;
;
; 

; external perimeters extrusion width = 0.60mm
; perimeters extrusion width = 0.50mm
; infill extrusion width = 0.50mm
; solid infill extrusion width = 0.50mm
; top infill extrusion width = 0.45mm
; first layer extrusion width = 0.42mm

; external perimeters extrusion width = 0.60mm
; perimeters extrusion width = 0.50mm
; infill extrusion width = 0.50mm
; solid infill extrusion width = 0.50mm
; top infill extrusion width = 0.45mm
; first layer extrusion width = 0.42mm

; external perimeters extrusion width = 0.60mm
; perimeters extrusion width = 0.50mm
; infill extrusion width = 0.50mm
; solid infill extrusion width = 0.50mm
; top infill extrusion width = 0.45mm
; first layer extrusion width = 0.42mm

; external perimeters extrusion width = 0.60mm
; perimeters extrusion width = 0.50mm
; infill extrusion width = 0.50mm
; solid infill extrusion width = 0.50mm
; top infill extrusion width = 0.45mm
; first layer extrusion width = 0.42mm

M73 P0 R92
M73 Q0 S96
M201 X1000 Y1000 Z200 E5000 ; sets maximum accelerations, mm/sec^2
M203 X200 Y200 Z12 E120 ; sets maximum feedrates, mm / sec
M204 P1250 R1250 T1250 ; sets acceleration (P, T) and retract acceleration (R), mm/sec^2
M205 X8.00 Y8.00 Z0.40 E4.50 ; sets the jerk limits, mm/sec
M205 S0 T0 ; sets the minimum extruding and travel feed rate, mm/sec
M107
;TYPE:Custom
M862.3 P "MK3S" ; printer model check
M862.1 P0.4 ; nozzle diameter check
M115 U3.12.2 ; tell printer latest fw version
G90 ; use absolute coordinates
M83 ; extruder relative mode
M104 S215 ; set extruder temp
M140 S60 ; set bed temp
M190 S60 ; wait for bed temp
M109 S215 ; wait for extruder temp
G28 W ; home all without mesh bed level
G80 ; mesh bed leveling

G1 Z0.2 F720
G1 Y-3 F1000 ; go outside print area
G92 E0
G1 X60 E9 F1000 ; intro line
G1 X100 E12.5 F1000 ; intro line

G92 E0
M221 S95

; Don't change E values below. Excessive value can damage the printer.

M907 E538 ; set extruder motor current
G21 ; set units to millimeters
G90 ; use absolute coordinates
M83 ; use relative distances for extrusion
M900 K0.05 ; Filament gcode LA 1.5
M900 K30 ; Filament gcode LA 1.0
M107
;LAYER_CHANGE
;Z:0.2
;HEIGHT:0.2
;BEFORE_LAYER_CHANGE
G92 E0.0
;0.2


G1 E-.8 F2100
G1 Z.4 F720
;AFTER_LAYER_CHANGE
;0.2
G1 X43.653 Y73.836 F10800
G1 Z.2 F720
G1 E.8 F2100
M204 S800
;TYPE:Skirt/Brim
;WIDTH:0.42
G1 F1200
G1 X44.578 Y73.649 E.02959
G1 X199.078 Y73.649 E4.84424
G1 X200.385 Y74.041 E.04278
G1 X201.261 Y75.086 E.04275
G1 X201.455 Y75.988 E.02893
G1 X201.766 Y95.471 E.61095
G1 X202.025 Y134.776 E1.23241
G1 X202.025 Y147.776 E.40761
G1 X201.633 Y149.083 E.04278
G1 X200.84 Y149.832 E.0342
G1 X148.828 Y179.995 E1.88519
G1 X145.123 Y181.966 E.13158
G1 X142.301 Y183.224 E.09688
G1 X140.306 Y183.996 E.06707
G1 X138.327 Y184.672 E.06557
G1 X135.358 Y185.524 E.09685
G1 X131.221 Y186.404 E.13261
G1 X128.162 Y186.835 E.09686
G1 X126.031 Y187.027 E.06709
G1 X122.945 Y187.15 E.09684
G1 X120.806 Y187.129 E.06707
G1 X117.722 Y186.944 E.09687
G1 X115.643 Y186.716 E.06558
G1 X111.474 Y186.001 E.13262
G1 X108.473 Y185.268 E.09686
G1 X106.424 Y184.657 E.06704
G1 X103.51 Y183.629 E.09689
G1 X101.532 Y182.817 E.06704
G1 X98.736 Y181.503 E.09687
G1 X96.848 Y180.498 E.06706
G1 X43.955 Y149.832 E1.91699
G1 X43.021 Y148.838 E.04277
G1 X42.773 Y147.877 E.03112
G1 X41.932 Y128.025 E.623
G1 X41.932 Y115.008 E.40814
G1 X42.201 Y76.01 E1.22278
G1 X42.602 Y74.705 E.04281
G1 X43.607 Y73.874 E.04089
M204 S1000
; printing object PedFlesHalsHouder id:0 copy 0
;WIPE_START
G1 F8640
G1 X44.578 Y73.649 E-.23015
G1 X47.046 Y73.649 E-.56985
;WIPE_END
G1 Z.6 F720
G1 X50.807 Y86.326 F10800
G1 Z.2 F720
G1 E.8 F2100
M204 S800
;TYPE:Perimeter
;WIDTH:0.419999
G1 F1200
G1 X50.834 Y86.465 E.00444
G1 X51.017 Y86.7 E.00934
G1 X51.357 Y86.813 E.01123
G1 X71.897 Y86.805 E.64402
G1 X72.199 Y86.647 E.01069
M73 Q0 S95
G1 X72.357 Y86.345 E.01069
G1 X72.365 Y86.247 E.00308
G1 X72.365 Y76.813 E.2958
G1 X105.067 Y76.813 E1.02535
G1 X105.136 Y77.81 E.03133
G1 X105.211 Y78.408 E.0189
G1 X105.412 Y79.535 E.03589
G1 X105.704 Y80.695 E.03751
G1 X105.888 Y81.289 E.0195
G1 X106.294 Y82.391 E.03682
G1 X106.533 Y82.944 E.01889
G1 X107.054 Y83.997 E.03684
G1 X107.345 Y84.513 E.01857
G1 X107.659 Y85.028 E.01891
G1 X108.319 Y85.99 E.03658
G1 X109.064 Y86.93 E.03761
G1 X109.659 Y87.586 E.02777
G1 X110.523 Y88.425 E.03776
G1 X111.172 Y88.997 E.02712
G1 X111.644 Y89.371 E.01888
G1 X112.653 Y90.083 E.03872
G1 X113.111 Y90.372 E.01698
G1 X114.136 Y90.947 E.03685
G1 X114.668 Y91.209 E.01859
G1 X115.514 Y91.572 E.02886
G1 X116.53 Y91.948 E.03397
G1 X117.445 Y92.231 E.03003
G1 X118.079 Y92.388 E.02048
G1 X118.606 Y92.501 E.0169
G1 X119.662 Y92.667 E.03352
G1 X120.766 Y92.777 E.03479
G1 X121.292 Y92.802 E.01651
G1 X122.892 Y92.775 E.05017
G1 X124.502 Y92.598 E.05078
G1 X125.661 Y92.369 E.03704
G1 X126.799 Y92.06 E.03697
G1 X127.371 Y91.871 E.01889
G1 X128.466 Y91.445 E.03684
G1 X129.015 Y91.196 E.0189
G1 X130.058 Y90.657 E.03681
G1 X130.568 Y90.358 E.01854
G1 X131.567 Y89.699 E.03752
G1 X132.485 Y88.996 E.03625
G1 X133.11 Y88.448 E.02606
G1 X133.809 Y87.784 E.03023
G1 X134.224 Y87.346 E.01892
G1 X134.985 Y86.452 E.03681
G1 X135.348 Y85.976 E.01877
G1 X135.92 Y85.141 E.03173
G1 X136.611 Y83.98 E.04236
G1 X136.887 Y83.444 E.0189
G1 X137.373 Y82.363 E.03716
G1 X137.778 Y81.26 E.03684
G1 X138.065 Y80.251 E.03289
G1 X138.244 Y79.535 E.02314
G1 X138.449 Y78.379 E.03681
G1 X138.536 Y77.632 E.02358
G1 X138.589 Y76.813 E.02573
G1 X171.291 Y76.813 E1.02535
G1 X171.291 Y86.247 E.2958
G1 X171.299 Y86.345 E.00308
G1 X171.457 Y86.647 E.01069
G1 X171.857 Y86.813 E.01358
G1 X192.299 Y86.813 E.64094
G1 X192.639 Y86.7 E.01123
G1 X192.822 Y86.465 E.00934
G1 X192.865 Y86.247 E.00697
G1 X192.865 Y76.813 E.2958
G1 X198.291 Y76.813 E.17013
G1 X198.291 Y88.239 E.35825
G1 X169.865 Y88.239 E.89128
G1 X169.865 Y78.805 E.2958
G1 X169.699 Y78.405 E.01358
G1 X169.299 Y78.239 E.01358
G1 X140.306 Y78.247 E.90905
G1 X139.984 Y78.426 E.01155
M73 P0 R91
G1 X139.849 Y78.698 E.00952
G1 X139.59 Y80.055 E.04332
G1 X139.454 Y80.613 E.01801
G1 X139.121 Y81.738 E.03679
G1 X138.718 Y82.84 E.03679
G1 X138.494 Y83.37 E.01804
G1 X137.986 Y84.428 E.0368
G1 X137.412 Y85.452 E.03681
G1 X137.107 Y85.939 E.01802
G1 X136.433 Y86.906 E.03696
G1 X136.083 Y87.362 E.01802
G1 X135.32 Y88.26 E.03695
G1 X134.927 Y88.68 E.01803
G1 X134.084 Y89.497 E.03681
G1 X133.195 Y90.256 E.03665
G1 X132.255 Y90.958 E.03678
G1 X131.774 Y91.283 E.0182
G1 X131.284 Y91.592 E.01816
G1 X130.257 Y92.171 E.03697
G1 X129.743 Y92.429 E.01803
G1 X128.67 Y92.904 E.03679
G1 X127.569 Y93.31 E.03679
G1 X127.021 Y93.483 E.01802
G1 X125.886 Y93.781 E.03679
G1 X124.734 Y94.005 E.0368
G1 X124.164 Y94.088 E.01806
G1 X122.996 Y94.201 E.03679
G1 X121.823 Y94.239 E.0368
G1 X121.244 Y94.229 E.01816
G1 X120.664 Y94.201 E.01821
G1 X119.492 Y94.088 E.03692
G1 X118.92 Y94.005 E.01812
G1 X117.77 Y93.781 E.03674
G1 X116.635 Y93.483 E.03679
G1 X116.087 Y93.31 E.01802
G1 X114.985 Y92.904 E.03682
G1 X113.913 Y92.429 E.03676
G1 X113.399 Y92.171 E.01803
G1 X112.372 Y91.592 E.03697
G1 X111.881 Y91.283 E.01819
G1 X111.401 Y90.958 E.01818
G1 X110.461 Y90.256 E.03678
G1 X109.57 Y89.496 E.03672
G1 X109.149 Y89.1 E.01812
G1 X108.33 Y88.253 E.03694
G1 X107.947 Y87.817 E.0182
G1 X107.579 Y87.369 E.01818
G1 X106.878 Y86.428 E.03679
G1 X106.239 Y85.444 E.03679
G1 X105.949 Y84.945 E.0181
G1 X105.539 Y84.167 E.02757
G1 X105.164 Y83.375 E.02748
G1 X104.831 Y82.563 E.02752
G1 X104.535 Y81.74 E.02742
G1 X104.202 Y80.613 E.03685
G1 X104.066 Y80.055 E.01801
G1 X103.807 Y78.698 E.04332
G1 X103.672 Y78.426 E.00952
G1 X103.252 Y78.239 E.01442
G1 X74.259 Y78.247 E.90905
G1 X73.957 Y78.405 E.01069
G1 X73.791 Y78.805 E.01358
G1 X73.791 Y88.239 E.2958
G1 X45.365 Y88.239 E.89128
G1 X45.365 Y76.813 E.35825
G1 X50.791 Y76.813 E.17013
G1 X50.795 Y86.267 E.29642
M204 S1000
G1 X51.168 Y86.247 F10800
M204 S800
;TYPE:External perimeter
G1 F1200
G1 X51.243 Y86.398 E.00529
G1 X51.357 Y86.436 E.00377
G1 X71.799 Y86.436 E.64094
G1 X71.933 Y86.381 E.00454
G1 X71.988 Y86.247 E.00454
G1 X71.988 Y76.436 E.30762
G1 X105.43 Y76.436 E1.04855
G1 X105.459 Y77.187 E.02356
M73 P1 R91
G1 X105.51 Y77.764 E.01816
G1 X105.582 Y78.342 E.01826
G1 X105.783 Y79.469 E.03589
G1 X106.064 Y80.584 E.03605
G1 X106.241 Y81.158 E.01883
G1 X106.641 Y82.242 E.03623
G1 X106.87 Y82.774 E.01816
G1 X107.383 Y83.812 E.0363
G1 X107.667 Y84.317 E.01817
G1 X107.97 Y84.815 E.01828
G1 X108.614 Y85.756 E.03575
G1 X109.344 Y86.677 E.03685
G1 X109.926 Y87.32 E.02719
G1 X110.772 Y88.142 E.03698
G1 X111.406 Y88.702 E.02652
G1 X111.863 Y89.064 E.01828
G1 X112.855 Y89.764 E.03807
G1 X113.296 Y90.044 E.01638
G1 X114.303 Y90.609 E.0362
G1 X114.823 Y90.866 E.01819
G1 X115.651 Y91.22 E.02823
G1 X116.641 Y91.588 E.03312
G1 X117.537 Y91.865 E.02941
G1 X118.159 Y92.019 E.02009
G1 X118.668 Y92.129 E.01633
G1 X119.706 Y92.292 E.03294
G1 X120.385 Y92.372 E.02144
G1 X120.963 Y92.413 E.01817
G1 X121.798 Y92.429 E.02619
G1 X122.861 Y92.4 E.03334
G1 X123.56 Y92.342 E.02199
G1 X124.43 Y92.228 E.02751
M73 Q1 S95
G1 X125.565 Y92.005 E.03627
G1 X126.681 Y91.702 E.03626
G1 X127.235 Y91.52 E.01828
G1 X128.311 Y91.101 E.0362
G1 X128.842 Y90.861 E.01827
G1 X129.865 Y90.333 E.0361
G1 X130.362 Y90.042 E.01806
G1 X131.338 Y89.399 E.03665
G1 X132.241 Y88.709 E.03563
G1 X132.851 Y88.175 E.02542
G1 X133.536 Y87.525 E.02961
G1 X133.937 Y87.101 E.0183
G1 X134.686 Y86.223 E.03619
G1 X135.039 Y85.761 E.01823
G1 X135.608 Y84.928 E.03163
G1 X136.276 Y83.807 E.04092
G1 X136.543 Y83.289 E.01827
G1 X137.019 Y82.233 E.03632
G1 X137.418 Y81.149 E.03622
G1 X137.699 Y80.159 E.03227
G1 X137.872 Y79.471 E.02224
G1 X138.075 Y78.332 E.03628
G1 X138.146 Y77.757 E.01817
G1 X138.197 Y77.177 E.01826
G1 X138.226 Y76.436 E.02325
G1 X171.668 Y76.436 E1.04855
G1 X171.668 Y86.247 E.30762
G1 X171.723 Y86.381 E.00454
G1 X171.857 Y86.436 E.00454
G1 X192.299 Y86.436 E.64094
G1 X192.413 Y86.398 E.00377
G1 X192.488 Y86.247 E.00529
G1 X192.488 Y76.436 E.30762
G1 X198.668 Y76.436 E.19377
G1 X198.668 Y88.616 E.38189
G1 X169.488 Y88.616 E.91492
G1 X169.488 Y78.805 E.30762
G1 X169.433 Y78.671 E.00454
G1 X169.299 Y78.616 E.00454
G1 X140.404 Y78.616 E.90598
G1 X140.279 Y78.664 E.0042
G1 X140.219 Y78.769 E.00379
G1 X139.958 Y80.135 E.0436
G1 X139.818 Y80.711 E.01859
G1 X139.48 Y81.857 E.03746
G1 X139.069 Y82.979 E.03747
G1 X138.838 Y83.525 E.01859
G1 X138.321 Y84.602 E.03746
G1 X137.736 Y85.644 E.03747
G1 X137.421 Y86.147 E.01861
G1 X136.738 Y87.129 E.0375
G1 X136.376 Y87.599 E.0186
G1 X135.601 Y88.511 E.03753
G1 X135.196 Y88.944 E.01859
G1 X134.338 Y89.776 E.03747
G1 X133.431 Y90.551 E.03741
G1 X132.474 Y91.266 E.03746
G1 X131.98 Y91.599 E.01868
G1 X131.477 Y91.916 E.01864
G1 X130.435 Y92.503 E.0375
G1 X129.905 Y92.77 E.01861
G1 X128.812 Y93.254 E.03748
G1 X127.691 Y93.667 E.03746
G1 X127.125 Y93.845 E.0186
G1 X125.97 Y94.149 E.03745
G1 X124.797 Y94.377 E.03747
G1 X124.21 Y94.463 E.0186
G1 X123.021 Y94.578 E.03745
G1 X121.826 Y94.616 E.03749
G1 X121.231 Y94.606 E.01866
G1 X120.637 Y94.578 E.01865
G1 X119.446 Y94.463 E.03752
G1 X118.856 Y94.377 E.01869
G1 X117.686 Y94.149 E.03737
G1 X116.531 Y93.845 E.03745
G1 X115.965 Y93.667 E.0186
G1 X114.844 Y93.254 E.03746
G1 X113.751 Y92.77 E.03748
G1 X113.221 Y92.503 E.01861
G1 X112.179 Y91.916 E.0375
G1 X111.675 Y91.599 E.01867
G1 X111.182 Y91.266 E.01865
G1 X110.225 Y90.551 E.03746
G1 X109.318 Y89.777 E.03739
G1 X108.884 Y89.369 E.01868
G1 X108.052 Y88.509 E.03752
G1 X107.66 Y88.061 E.01866
G1 X107.282 Y87.602 E.01864
G1 X106.569 Y86.644 E.03744
G1 X105.918 Y85.641 E.03749
G1 X105.619 Y85.128 E.01862
G1 X105.201 Y84.336 E.02808
G1 X104.819 Y83.527 E.02805
G1 X104.479 Y82.699 E.02806
G1 X104.176 Y81.857 E.02806
G1 X103.838 Y80.711 E.03746
G1 X103.698 Y80.135 E.01859
G1 X103.437 Y78.769 E.0436
G1 X103.396 Y78.683 E.00299
G1 X103.252 Y78.616 E.00498
G1 X74.357 Y78.616 E.90598
G1 X74.223 Y78.671 E.00454
G1 X74.168 Y78.805 E.00454
G1 X74.168 Y88.616 E.30762
G1 X44.988 Y88.616 E.91492
G1 X44.988 Y76.436 E.38189
G1 X51.168 Y76.436 E.19377
G1 X51.168 Y86.187 E.30574
M204 S1000
G1 X51.08 Y86.391 F10800
;WIPE_START
G1 F8640
G1 X51.243 Y86.398 E-.05171
G1 X51.357 Y86.436 E-.02775
G1 X54.478 Y86.436 E-.72054
;WIPE_END
G1 Z.6 F720
G1 X198.121 Y77.745 F10800
G1 Z.2 F720
G1 E.8 F2100
M204 S800
;TYPE:Solid infill
;WIDTH:0.420078
G1 F1200
G1 X197.528 Y77.152 E.0263
G1 X196.995 Y77.152 E.01672
G1 X197.952 Y78.109 E.04244
G1 X197.952 Y78.642 E.01672
G1 X196.462 Y77.152 E.06608
G1 X195.928 Y77.152 E.01675
G1 X197.952 Y79.176 E.08977
G1 X197.952 Y79.709 E.01672
G1 X195.395 Y77.152 E.11341
G1 X194.862 Y77.152 E.01672
G1 X197.952 Y80.242 E.13704
G1 X197.952 Y80.776 E.01675
G1 X194.328 Y77.152 E.16073
G1 X193.795 Y77.152 E.01672
G1 X197.952 Y81.309 E.18437
G1 X197.952 Y81.843 E.01675
G1 X193.261 Y77.152 E.20805
G1 X193.204 Y77.152 E.00179
G1 X193.204 Y77.629 E.01496
G1 X197.952 Y82.376 E.21056
G1 X197.952 Y82.909 E.01672
G1 X193.204 Y78.162 E.21056
G1 X193.204 Y78.696 E.01675
G1 X197.952 Y83.443 E.21056
G1 X197.952 Y83.976 E.01672
G1 X193.204 Y79.229 E.21056
G1 X193.204 Y79.762 E.01672
G1 X197.952 Y84.509 E.21056
G1 X197.952 Y85.043 E.01675
G1 X193.204 Y80.296 E.21056
G1 X193.204 Y80.829 E.01672
G1 X197.952 Y85.576 E.21056
G1 X197.952 Y86.11 E.01675
G1 X193.204 Y81.362 E.21058
G1 X193.204 Y81.896 E.01675
G1 X197.952 Y86.643 E.21056
G1 X197.952 Y87.176 E.01672
G1 X193.204 Y82.429 E.21056
G1 X193.204 Y82.963 E.01675
G1 X197.952 Y87.71 E.21056
G1 X197.952 Y87.9 E.00596
G1 X197.608 Y87.9 E.01079
G1 X193.204 Y83.496 E.19532
G1 X193.204 Y84.029 E.01672
G1 X197.075 Y87.9 E.17168
G1 X196.541 Y87.9 E.01675
G1 X193.204 Y84.563 E.148
G1 X193.204 Y85.096 E.01672
G1 X196.008 Y87.9 E.12436
G1 X195.474 Y87.9 E.01675
G1 X193.204 Y85.63 E.10068
G1 X193.204 Y86.163 E.01672
G1 X194.941 Y87.9 E.07704
G1 X194.408 Y87.9 E.01672
G1 X193.125 Y86.617 E.0569
G1 X192.892 Y86.917 E.01191
G1 X193.874 Y87.9 E.04357
G1 X193.341 Y87.9 E.01672
G1 X192.546 Y87.104 E.03528
G1 X192.461 Y87.141 E.00291
G1 X192.049 Y87.141 E.01292
G1 X192.807 Y87.9 E.03364
G1 X192.274 Y87.9 E.01672
G1 X191.516 Y87.142 E.03362
G1 X190.983 Y87.142 E.01672
G1 X191.741 Y87.9 E.03362
G1 X191.207 Y87.9 E.01675
G1 X190.45 Y87.142 E.0336
G1 X189.917 Y87.142 E.01672
G1 X190.674 Y87.9 E.0336
G1 X190.141 Y87.9 E.01672
G1 X189.384 Y87.143 E.03357
G1 X188.851 Y87.143 E.01672
G1 X189.607 Y87.9 E.03355
G1 X189.074 Y87.9 E.01672
G1 X188.318 Y87.143 E.03355
G1 X187.785 Y87.144 E.01672
G1 X188.54 Y87.9 E.03351
G1 X188.007 Y87.9 E.01672
G1 X187.251 Y87.144 E.03353
G1 X186.718 Y87.144 E.01672
G1 X187.474 Y87.9 E.03353
G1 X186.94 Y87.9 E.01675
G1 X186.185 Y87.145 E.03348
G1 X185.652 Y87.145 E.01672
G1 X186.407 Y87.9 E.03348
G1 X185.874 Y87.9 E.01672
G1 X185.119 Y87.145 E.03348
G1 X184.586 Y87.145 E.01672
G1 X185.34 Y87.9 E.03346
G1 X184.807 Y87.9 E.01672
G1 X184.053 Y87.146 E.03344
G1 X183.52 Y87.146 E.01672
G1 X184.273 Y87.9 E.03342
G1 X183.74 Y87.9 E.01672
G1 X182.987 Y87.146 E.03342
G1 X182.454 Y87.147 E.01672
G1 X183.207 Y87.9 E.0334
G1 X182.673 Y87.9 E.01675
G1 X181.921 Y87.147 E.03337
G1 X181.387 Y87.147 E.01675
G1 X182.14 Y87.9 E.0334
G1 X181.606 Y87.9 E.01675
G1 X180.854 Y87.147 E.03337
G1 X180.321 Y87.148 E.01672
G1 X181.073 Y87.9 E.03335
G1 X180.54 Y87.9 E.01672
G1 X179.788 Y87.148 E.03335
G1 X179.255 Y87.148 E.01672
G1 X180.006 Y87.9 E.03333
G1 X179.473 Y87.9 E.01672
G1 X178.722 Y87.149 E.03331
G1 X178.189 Y87.149 E.01672
G1 X178.94 Y87.9 E.03331
G1 X178.406 Y87.9 E.01675
G1 X177.656 Y87.149 E.03329
G1 X177.123 Y87.15 E.01672
G1 X177.873 Y87.9 E.03326
G1 X177.339 Y87.9 E.01675
G1 X176.59 Y87.15 E.03324
G1 X176.057 Y87.15 E.01672
G1 X176.806 Y87.9 E.03324
G1 X176.273 Y87.9 E.01672
G1 X175.524 Y87.15 E.03324
G1 X174.99 Y87.151 E.01675
G1 X175.739 Y87.9 E.03322
G1 X175.206 Y87.9 E.01672
G1 X174.457 Y87.151 E.03322
G1 X173.924 Y87.151 E.01672
G1 X174.673 Y87.9 E.03322
G1 X174.139 Y87.9 E.01675
G1 X173.391 Y87.152 E.03317
G1 X172.858 Y87.152 E.01672
G1 X173.606 Y87.9 E.03317
